X:1
T:Fête Dieu à Séville
T:Fête Dieu à Séville
T:from the suite "Iberia"
T:I. Albeniz
C:I. Albeniz
%%score { ( 1 8 9 ) | ( 2 4 7 10 ) | ( 3 5 6 ) }
L:1/8
Q:1/4=128
M:2/4
K:A
V:1 treble nm="Piano" snm="Pno."
V:8 treble 
V:9 treble 
V:2 treble 
V:4 treble 
V:7 treble 
V:10 treble 
V:3 bass 
V:5 bass 
V:6 bass 
V:1
"^Allegro gracioso" z/ | z4 | z4 | z4 | z4 | z4 | z4 | z4 | z4 | z4 | z4 | z4 | z4 | z4 | z4 | z4 | %16
 z4 | z4 | z4 | z4 | z4 | z4 | z4 | z4 | z4 | z4 | z4 | z4 | z4 | z4 | z4 | z4 | z4 | z4 | z4 | %35
 z4 | z4 | z4 | z4 | z4 | z4 | z4 | z4 | z4 | z4 | z4 | z4 | z4 | z4 | z4 | z4 | z4 | z4 | z4 | %54
 z4 | z4 | z4 | z4 | z4 | z4 | z4 | z4 | z4 | z4 | z4 | z4 | z4 | z4 | z4 | z4 | z4 | z4 | z4 | %73
 z4 | z4 | z4 | z4 | z4 | z4 | z4 | z4 | z4 | z4[Q:1/4=110][Q:1/4=100][Q:1/4=80] || %83
[K:F#][M:4/4]"^retenez le temps."[Q:1/4=110]!8va(! ([f'f'']/.[a'c'']/)[I:staff +1].c''/[I:staff -1].[c'f'a'c'']/[I:staff +1] .c''/[I:staff -1].[c'f'a'c'']/[I:staff +1].b'/[I:staff -1].[bf'b']/[I:staff +1] .d''/[I:staff -1].[d'f'd'']/[I:staff +1].c''/[I:staff -1].[c'f'c'']/[I:staff +1] .b'/[I:staff -1].[bf'b']/.a/.[af'a']/ | %84
 (([bb']/.[d'f']/))[I:staff +1].b'/[I:staff -1].[bd'f'b']/[I:staff +1] .b'/[I:staff -1].[bd'f'b']/[I:staff +1].a'/[I:staff -1].[af'a']/[I:staff +1] .c''/[I:staff -1].[c'f'c'']/[I:staff +1].b'/[I:staff -1].[bf'b']/!8va)! !>!a/.[c'e'a']/!>!g/.[bc'g']/ | %85
 !>!f/.[ac'f']/[I:staff +1] .g/[I:staff -1].[gac'g']/[I:staff +1] .f/[I:staff -1].[fac'f']/[I:staff +1].d/[I:staff -1].[dfad']/[I:staff +1] .c/[I:staff -1].[cfac']/[I:staff +1].d/[I:staff -1].[dfad']/[I:staff +1] .c/[I:staff -1].[cfac']/[I:staff +1].A/[I:staff -1].[Acfa]/ | %86
[I:staff +1] .G/[I:staff -1].[GAcg]/[I:staff +1].A/[I:staff -1].[Acfa]/[I:staff +1] .c/[I:staff -1].[cfac']/[I:staff +1].d/[I:staff -1].[dfad']/[I:staff +1] .f/[I:staff -1].[fac'f']/[I:staff +1]a/[I:staff -1].[ac'f'a']/[I:staff +1] .c'/!8va(![I:staff -1].[c'f'a'c'']/.d'/.[d'f'a'd'']/ | %87
!ffff! (!>![f'f'']/.[a'c'']/)[I:staff +1].c''/[I:staff -1].[c'f'a'c'']/[I:staff +1] .c''/[I:staff -1].[c'f'a'c'']/[I:staff +1].=e''/[I:staff -1].[=e'f'a'c''=e'']/[I:staff +1] .=d''/[I:staff -1].[=d'f'a'=d'']/[I:staff +1].c''/[I:staff -1].[c'f'a'c'']/[I:staff +1] .a'/[I:staff -1].[ac'f'a']/(!>!=e'/.[b=g'b']/) | %88
 (!>!=e'/.[=gb=g']/)[I:staff +1].b'/[I:staff -1].[be'g'b']/!8va)![I:staff +1] .=g/[I:staff -1].[=gbe'g']/[I:staff +1].=e/[I:staff -1].[egbe']/ (!>!b/.[=e=g=e']/)[I:staff +1].=g/[I:staff -1].[gbe'=g']/[I:staff +1] .=e/[I:staff -1].[egbe']/.B/.[Begb]/ | %89
!f!!<(! (!>!=e/.[=G=g]/)(!>!g/.[Beb]/) (!>!b/.[eg=e']/)((!>!e'/.[gb=g']/)) (!>!g/.[Beb]/)[I:staff +1].=e/[I:staff -1].[=ceg=c']/[I:staff +1] .=g/[I:staff -1].[gbe'=g']/[I:staff +1].b/[I:staff -1].[be'g'b']/!<)! | %90
[I:staff +1] .=G/!ffff![I:staff -1].[=GB=e=g]/[I:staff +1].=A/[I:staff -1].[=Ae=a]/[I:staff +1] .B/[I:staff -1].[Be=gb]/[I:staff +1].=e/[I:staff -1].[egb=e']/!8va(![I:staff +1] .=g'/[I:staff -1].[=gb=e'=g']/[I:staff +1].=a'/[I:staff -1].[=ae'=a']/[I:staff +1] .b'/[I:staff -1].[be'g'b']/.g'/.[g'b'=e''=g'']/ | %91
 (!>![f'f'']/.[a'c'']/)[I:staff +1].c''/[I:staff -1].[c'f'a'c'']/[I:staff +1] .c''/[I:staff -1].[c'f'a'c'']/[I:staff +1].b'/[I:staff -1].[bf'b']/[I:staff +1] .d''/[I:staff -1].[d'f'd'']/[I:staff +1].c''/[I:staff -1].[c'f'c'']/[I:staff +1] .b'/[I:staff -1].[bf'b']/.a/.[af'a']/ | %92
 (!>![bb']/.[d'f']/)[I:staff +1].b'/[I:staff -1].[bd'f'b']/[I:staff +1] .b'/[I:staff -1].[bd'f'b']/[I:staff +1].a'/[I:staff -1].[af'a']/[I:staff +1] .c''/[I:staff -1].[c'f'c'']/[I:staff +1].b'/[I:staff -1].[bf'b']/!8va)! !>!a/.[c'e'a']/!>!g/.[bc'g']/ | %93
 !>!f/.[ac'f']/[I:staff +1] .g/[I:staff -1].[gac'g']/[I:staff +1] .f/[I:staff -1].[fac'f']/[I:staff +1].d/[I:staff -1].[dfad']/[I:staff +1] .c/[I:staff -1].[cfac']/[I:staff +1].d/[I:staff -1].[dfad']/[I:staff +1] .c/[I:staff -1].[cfac']/[I:staff +1].A/[I:staff -1].[Acfa]/ | %94
[I:staff +1] .G/[I:staff -1].[GAcg]/[I:staff +1].A/[I:staff -1].[Acfa]/[I:staff +1] .c/[I:staff -1].[cfac']/[I:staff +1].d/[I:staff -1].[dfad']/[I:staff +1] .f/[I:staff -1].[fac'f']/[I:staff +1].a/[I:staff -1].[ac'f'a']/[I:staff +1] .c'/!8va(![I:staff -1].[c'f'a'c'']/.d'/.[d'f'a'd'']/ | %95
 ((!>![f'f'']/.[a'c'']/))((!>![c'c'']/.[f'a']/)) ((!>![c'c'']/.[f'a']/))(!>![aa']/.[c'f']/) (([=g'=g'']/.[b'=d'']/))[I:staff +1].=d''/[I:staff -1].[=d'g'b'=d'']/[I:staff +1] .d''/[I:staff -1].[d'g'b'd'']/[I:staff +1].^c''/[I:staff -1].[^c'g'b'^c'']/ | %96
[I:staff +1] .=e''/[I:staff -1].[=e'=g'b'=e'']/[I:staff +1].=d''/[I:staff -1].[=d'g'b'=d'']/!8va)![I:staff +1] .b/[I:staff -1].[B=d=gb]/[I:staff +1].=g/[I:staff -1].[=GBdg]/ (!>!g'/.[bb']/)[I:staff +1].=g/[I:staff -1].[=gbg']/[I:staff +1] .^d/[I:staff -1].[Bgb]/[I:staff +1].B/[I:staff -1].[=GBg]/ | %97
!ffff! (!>!=g/.[Bb]/)(!>!b/.[=e=e']/) (!>!e'/.[gb=g']/)(!>!g'/.[be'b']/) ((!>!=g/.[Bb]/))[I:staff +1].=e/[I:staff -1].[=dgb=d']/[I:staff +1] .=a/!8va(![I:staff -1].[gb=d'=g']/[I:staff +1].b'/[I:staff -1].[d'g'b'=d'']/!8va)! | %98
[I:staff +1] .=A/[I:staff -1].[=GB=d=g]/[I:staff +1].B/[I:staff -1].[dgb=d']/[I:staff +1] .=e/[I:staff -1].[dgbd']/[I:staff +1].=g/!8va(![I:staff -1].[b=d'=g'b']/[I:staff +1] .=a'/[I:staff -1].[=gb=d'=g']/[I:staff +1].b'/[I:staff -1].[d'g'b'=d'']/[I:staff +1] .=e''/[I:staff -1].[d'g'b'd'']/.=a'/.[g'b'd''=g'']/ | %99
 ((!>![f'f'']/.[a'c'']/))[I:staff +1].c''/[I:staff -1].[c'f'a'c'']/[I:staff +1] .c''/[I:staff -1].[c'f'a'c'']/[I:staff +1].b'/[I:staff -1].[bf'b']/[I:staff +1] .d''/[I:staff -1].[d'f'd'']/[I:staff +1].c''/[I:staff -1].[c'f'c'']/[I:staff +1] .b'/[I:staff -1].[bf'b']/.a/.[af'a']/ | %100
 ((!>![bb']/.[d'f']/))[I:staff +1].b'/[I:staff -1].[bd'f'b']/[I:staff +1] .b'/[I:staff -1].[bd'f'b']/[I:staff +1].a'/[I:staff -1].[af'a']/[I:staff +1] .c''/[I:staff -1].[c'f'c'']/[I:staff +1].b'/[I:staff -1].[bf'b']/!8va)! !>!a/.[c'e'a']/!>!g/.[bc'g']/ | %101
 !>!f/.[ac'f']/[I:staff +1] .g/[I:staff -1].[gac'g']/[I:staff +1] .f/[I:staff -1].[fac'f']/[I:staff +1].d/[I:staff -1].[dfad']/[I:staff +1] .c/[I:staff -1].[cfac']/[I:staff +1].d/[I:staff -1].[dfad']/[I:staff +1] .c/[I:staff -1].[cfac']/[I:staff +1].A/[I:staff -1].[Acfa]/ | %102
[I:staff +1] .G/[I:staff -1].[Gcg]/[I:staff +1].A/[I:staff -1].[Acfa]/[I:staff +1] .c/[I:staff -1].[cfac']/[I:staff +1].d/[I:staff -1].[dfad']/!>(![I:staff +1] .c/[I:staff -1].[cfac']/[I:staff +1].A/[I:staff -1].[Acfa]/"_dim."[I:staff +1] .G/[I:staff -1].[Gcg]/[I:staff +1].A/!f![I:staff -1].[Acfa]/!>)! | %103
 x4!>(! x4 | x4 x4!>)! |[K:bass][K:bass] x4 x4 | x4 x4 | z8 | z4[Q:1/4=108] z4 | %109
[K:treble]"^un peu plus calme""_doux, mais sonore et très vagues, en retenant les entrées des mesures"[Q:1/4=108] !>!F8[Q:1/4=114][Q:1/4=108] | %110
"^a Tempo"[Q:1/4=110] !>!G6-[Q:1/4=114][Q:1/4=108] G/z/A |"^a Tempo"[Q:1/4=110] !>!A8- | %112
 A8[Q:1/4=104][Q:1/4=98]"^(1)" ||"^cantando bene."!p![Q:1/4=110] !>!F8-[Q:1/4=112] | %114
!<(! (F4!<)![Q:1/4=104]"^rit.  assai." G2-) (3(G!tenuto!=E!tenuto!F) | %115
"^a Tempo"[Q:1/4=110]!mp! !>!G8-[Q:1/4=112][Q:1/4=114][Q:1/4=116] | %116
 G8[Q:1/4=112][Q:1/4=108][Q:1/4=104] || %117
"^a Tempo""^plus calme, sempre dolce e calmato" (!>!c4 B2-) (3(B!tenuto!G!tenuto!=A)[Q:1/4=114][Q:1/4=104] | %118
"^a Tempo"[Q:1/4=110] B8[Q:1/4=114][Q:1/4=108][Q:1/4=104] || %119
"^a Tempo"[Q:1/4=110] (!>!B4 (=A2) (3(A)!tenuto!F!tenuto!=G)[Q:1/4=114][Q:1/4=104] | %120
"^a Tempo"[Q:1/4=110] =A8[Q:1/4=108][Q:1/4=104] || %121
"^plus lent et très, très vague."!pp! (!>!=A4!<(! =E2!<)!!p!!>(! A2!>)![Q:1/4=104] | %122
"^a Tempo"[Q:1/4=110] =E8)[Q:1/4=114][Q:1/4=104] | %123
!pp!"^a Tempo""^plus calme encore." (!>!=G4 =E2-)"_rit." (3(E!<(!!tenuto!=C!<)!!>(!!tenuto!=D)!>)! | %124
"^a Tempo"[Q:1/4=110]!pp! !tenuto!=E8[Q:1/4=114][Q:1/4=104] || %125
"^a Tempo"[Q:1/4=110]"^très doux et très lointain." (=e4 =d2-) (3(d!tenuto!=B!tenuto!=c)[Q:1/4=104] | %126
 =d8[Q:1/4=114][Q:1/4=104] || %127
"^a Tempo"[Q:1/4=110]"_sempre expressivo." (!>!=d4 =c2-)[Q:1/4=102] (3(c!tenuto!=A!tenuto!_B) | %128
 !>!=c8[Q:1/4=114][Q:1/4=94] || %129
"^a Tempo""^absolument estampé, très, très lointain."!pp![Q:1/4=110] (=c4 =G2[Q:1/4=104] c2 | %130
 !tenuto!!courtesy!=G8)[Q:1/4=114] |"^a Tempo"!pp![Q:1/4=110] (!>!=c4[Q:1/4=104] =G2[Q:1/4=94] c2 | %132
[Q:1/4=94]!<(! !>!^F4)!p! ^G2-[Q:1/4=94] (3(G"_rit."!tenuto!=E!tenuto!!fermata!F)!<)! || %133
"^a Tempo"!mp! G8[Q:1/4=114] |!f!{FG} (!>!F/=E/[Q:1/4=118]=D-) D6[Q:1/4=104] | %135
!>(! (!>!^E/F/G-)!>)!!mf! G6[Q:1/4=114] | %136
[Q:1/4=104]{=D=E} !>!D/C/^B,- B,2[Q:1/4=96]!<(! !>!=D2-!<)![Q:1/4=92] (3(D"^rit."!tenuto!=A,!tenuto!=B,) || %137
[M:2/4][K:bass][Q:1/4=128]"^Tempo du commencement"!pp! .C.C.C.B, |!<(! .=D.C.B,.D!<)! | %139
!p!!>(! !>!C.=D !>!B,.C!>)! | !>!=A,.B, !>!G,.A, |[K:treble] !>!^A z z2 | .B"_cresc." z z (C/=D/) | %143
 .=G z .C z | .=E z .A, z |!mf! .=A z .^E z | .F z .=A z |!mp! .G z .^E z | G z =c z | %149
!ff! !>!=A.A !>!A.=G | !>!B.=A !>!=G.B | !>!=A.A !>!A.=G | !>!B.=A !>!=G.B |!fff! !>!=A.B!>!=e.B | %154
 !>!=A.B !>!=G.B | [=C=A] z z2 | x4 |!ff! !>![=g=e'] z !>![fb] z | !>![=c=g=c'] z !>![b=d'] z | %159
 !>![=g=e'] z !>![fb] z | !>![=c=g=c'] z !>![b=d'] z | %161
 =e'[I:staff +1] .^A,/[I:staff -1].[B,=E]/[I:staff +1] .D/[I:staff -1].[E=G]/[I:staff +1].A,/[I:staff -1].[B,E]/ | %162
[I:staff +1] .D/[I:staff -1].[=E=G]/[I:staff +1].F/[I:staff -1].[GB]/[I:staff +1] .D/[I:staff -1].[EG]/[I:staff +1].F/[I:staff -1].[GB]/ | %163
[I:staff +1] .A/[I:staff -1].[B=e]/[I:staff +1].F/[I:staff -1].[=GB]/[I:staff +1] .A/[I:staff -1].[Be]/[I:staff +1].d/[I:staff -1].[e=g]/ | %164
[I:staff +1] .A/[I:staff -1].[B=e]/[I:staff +1].d/[I:staff -1].[e=g]/[I:staff +1] .f/[I:staff -1].[gb]/[I:staff +1].d/[I:staff -1].[eg]/ | %165
[I:staff +1] .a/[I:staff -1].[=gb=e']/[I:staff +1].d/[I:staff -1].[eg]/[I:staff +1] .f/[I:staff -1].[gb]/[I:staff +1].d/[I:staff -1].[eg]/ | %166
[I:staff +1] .a/[I:staff -1].[=gb=e']/[I:staff +1].d/[I:staff -1].[eg]/[I:staff +1] .f/[I:staff -1].[gb]/[I:staff +1].d/[I:staff -1].[eg]/ | %167
[I:staff +1] .a/[I:staff -1].[=gb=e']/[I:staff +1].d/[I:staff -1].[eg]/[I:staff +1] .f/[I:staff -1].[gb]/[I:staff +1].d/[I:staff -1].[eg]/ | %168
[Q:1/4=114][I:staff +1] .f/[I:staff -1].[=gb]/[I:staff +1].=g/[I:staff -1].[b=e']/[I:staff +1] .b/[I:staff -1].[e'=g']/"^rit."[Q:1/4=96].e'/.[g'b']/ || %169
[M:4/4]!8va(! x/[Q:1/4=120] !tenuto![d'f'b'd''] x!8va)! x2 x4 | %170
 x/ x4 x2 (!>!d/.[fad']/)(!>!c/.[fac']/) | (!>!B/.[fb]/) x x2 x4 | x8 | %173
[M:4/4] (33:32:2x/4 !>![bd'f'b']8 | (25:24:2x/4 !>![c'f'a'c'']6- [c'f'a'c'']7/4[d'f'b'd'']/4 | %175
"^plus fort encore si possible." !>![d'f'b'd'']8-[Q:1/4=150][Q:1/4=140][Q:1/4=160] | %176
[Q:1/4=150] [d'f'b'd'']8[Q:1/4=136][Q:1/4=140] | !>![Bdfb]8- | [Bdfb]8 | %179
[M:4/4]"_aussi sonore que possible" !>![dfbd']8- | [dfbd']8[Q:1/4=128][Q:1/4=132] | %181
 (!>![F,F]/C/B,/)[I:staff +1]C/[I:staff -1] (!>![B,B]/F/B,/)[I:staff +1]c/[I:staff -1] ((!>![Bb]/f/B/))[I:staff +1]c'/[I:staff -1] (!>![bb']/f'/b/)!8va(![I:staff +1]c''/ | %182
[I:staff -1] (!>!f''/g''/f''/)c''/ (!>!b'/c''/b'/)f'/ (!>!f'/g'/f'/)c'/ (!>!b/c'/b/)f/!8va)! | %183
[M:2/4][Q:1/4=128] z4[Q:1/4=120] | z4 | z4[Q:1/4=110] | z4[Q:1/4=100][Q:1/4=60] |[Q:1/4=128] z4 | %188
 z4 | z4 | z4 | z4 | z4 | z4 | z4 | z4 | z4 | z4 | z4 | z4 | z4 | z4 | z4 | z4 | z4 | z4 | z4 | %207
 z4 | z4 | z4 | z4 | z4 | z4 | z4 | z4 |[Q:1/4=118] z4 | z4 | z4 | %218
[Q:1/4=100] z4[Q:1/4=90][Q:1/4=80] ||[M:3/8][Q:1/4=170] z3 | z3 | z3 | z3 | z3 | z3 | z3 | z3 | %227
 z3 | z3 | z3 | z3 | z3 | z3 | z3 | z3 | z3 | z3 | z3 | z3 | z3 | z3 | z3 | z3 | z3 | z3 | z3 | %246
 z3 | z3 | z3 | z3 | z3 | z3 |!<(! z3 | z3 | z3 | z3 | !>![=Bdf=b].[=A=a].[Gg] | %257
[I:staff +1] !>!F[I:staff -1].[Gg].[=A=a] | !>![=Bdf=b].[=A=a].[Gg] | %259
[I:staff +1] !>!F[I:staff -1].[Gg].[=A=a]!<)! | .[=Bdf=b][I:staff +1].G[I:staff -1].[=Ad=a] | %261
[I:staff +1] .^^c/[I:staff -1].[^Bf^b]/[I:staff +1].d/[I:staff -1].[Bfb]/[I:staff +1].f/[I:staff -1].[=a=c'=a']/ | %262
[I:staff +1] .=a/[I:staff -1].[=c'd'=c'']/[I:staff +1].f/[I:staff -1].[=ac'=a']/[I:staff +1].=c'/!8va(![I:staff -1].[d'f'd'']/ | %263
[I:staff +1] .=a'/[I:staff -1].[^bd'^b']/[I:staff +1].d''/[I:staff -1].[f'=a'f'']/[I:staff +1].^b'/[I:staff -1].[d'f'd'']/ | %264
 [=a'^b'f''=a'']3- | [a'b'f''a'']3- | [a'b'f''a'']3- | [a'b'f''a'']3- | [a'b'f''a'']3- | %269
 [a'b'f''a'']3- | x3 | x3!8va)! ||[M:4/4]"^Andante" !fermata!z8 | %273
[Q:1/4=100]"_dolce ma sonoroso" ((f2 c'4)) (d'=e' | c'8)[Q:1/4=80] | %275
!pppp! z2!p![Q:1/4=100]"_sempre dolce" (d'3 c' d'b | b8)[Q:1/4=80] | %277
 z2!p![Q:1/4=100] (=d'3 b c'=a | =a8)[Q:1/4=80] | %279
 z[Q:1/4=104]!ppp! =g!<(! =c'=d'=e'!<)!!>(!f'e'c'!>)! | =c'8[Q:1/4=80] | %281
[Q:1/4=90] z2!p!"_rit.  plaintif"!<(! (c'3!<)!!>(! =d' c'=a!>)! | f8) | %283
 z2"^très lointain" (z2!pp!!<(! !tenuto!=d'4 | !tenuto!b4 !tenuto!=d'4 | %285
!p![Q:1/4=92] !tenuto!b4!<)!!>(! !tenuto!=d'4 | %286
[Q:1/4=84]"_perdendosi." !tenuto!b4!ppp! !breath!!tenuto!=d'4)!>)! | %287
[Q:1/4=100] z2 z2!pp!!pppp! (!tenuto![af']4 | !tenuto![gd']4 !tenuto![fc']4"_" | %289
 [da]2-)"_retenez" !fermata![da]3/2 !fermata!z/ z2 z2"_" | z8 | %291
"_pesante ma non f" !tenuto![=F,B,=G]8- | [=F,B,=G]8 | %293
[Q:1/4=72]"^Adagio"!p!!>(! !tenuto![^A,^F^c]8 | !tenuto![A,Fc]8 | [eae']8!>)! | %296
!pp! [Adfa]6-!p! [Adfa] z | z8 |!pp!!8va(! !tenuto!f''2- f''!8va)! z z2 z2 |!pppp! [Afc']8- | %300
 [Afc']8 | z8 |] %302
V:2
!pp! (3(C/4^D/4^E/4) | .[A,F] z z2 | z2 z z/!pp! (3(C/4^D/4^E/4) | .[A,F] z z2 | %4
 z2 z z/!pp! (3(C/4^D/4^E/4) | .[A,F] z z2 | z2 z z/ (3(C/4^D/4^E/4) | .[A,F] z !fermata!z2 | %8
 !>!c.c .c.B | .d.c.B.A | .B z z!pp! .A | .c.B.A.G | .A z z .G | .B.A.G.F | .G z z .E | .C z .C.C | %16
"^sec." .F z z G | .B.A.G.F | .G z z .E |"^sec." .C z .C.C | .F!<(!.C.F.G!<)! |!>(! .B.A.G.F | %22
 .G.F.G.E!>)! | .C!<(! .^E[I:staff +1].G[I:staff -1].c!<)! |"^sec." .a z z2 |"^sec." .g z z2 | %26
"^sec." .e z z2 |"^sec." .f z z2 |"^sec." .d z z2 |"^sec." .c z z2 |"^sec." .B x"_sec." x2 | %31
"^sec." G z!p! .c.c |!<(! (!>!f3 g!<)! |!mp!!>(! bag!p!f!>)! |!mp!!>(! g3 e!>)! | c) z!p! .c.c | %36
!<(! (f3 g!<)! |!mp!!>(! bag!p!f!>)! |!>(! g3 e!>)! | c) z c z | !>!c'.c'!mf! .c'!>(!.b | %41
 .^d'.c'.b.a | .b z z .a!>)! |!mf! .c'!>(!.b.a.g | .a z z .g | .f.e.^d.c | .^d z z ._d | %47
!mp! ._B!>)! z!p! ._e.e |!<(! (!>!_a=ga)._b!<)! |!mp! (!>!_d'._c')(!>!_b._a) | (!>!_g3 =f | %51
"_cresc." _e) x x x | !>!_e'3 .=f' | (!>!_a'._g')(!>!=f'._e') | (!>!_d'3 =c' | %55
 ._b) z!ff! !>![=FA=c=f].[Ff] | !tenuto![_B=f_b]3/2 z/ z .[=c=c'] | %57
!ff! (!>![_e_e'].[_dc']) (!>![=c=c'].[_B_b]) | .[_A_B_a]3/2 z/ z .[_G_g] | %59
 .[=F=A=c=f] z!ff! !>![FAcf].[FAcf] | (!>![_B=f_b].[=B=b]) (!>![=cf=c'].[f=f']) | %61
!ff! (!>![_e=f_b_e'].[_d_d']) (!>![=cf=c'].[_B_b]) | (!>![_A_a].[_G_g]) (!>![=F=f].[_E_e]) | %63
!ff! (!>![_D=FA_d].[=C=c]/) z/!ff! (!>![=fa=c'=f'].[ff']) | !>![=f_b=f'].[ff']!ff!.[fbf'].[_e_e'] | %65
!ff! (!>![_g_b_e'_g'].[=f=f'])!ff! (!>![_egbe'].[_d_d']) | %66
!ff! !>![_e=f=a_e'].[_d_d'].[=Bf=b].[=c=c'] |!ff! !>![=f_b=f'].[_e_e'].[_df_d'].[=c=c'] | %68
 (!>![_d_g_b_d'].[=c=c']) (!>![=Ag=a].[_Bb]) | (!>![_e_g_b_e'].[_d_d']) (!>![=cg=c'].[_Bb]) | %70
 !>![=c_g=c'].[_B_b].[_AB_a].[_Gg] | %71
!ff! .[=F=c=f]!mf!!<(![I:staff +1] .A,/"^bruyant."[I:staff -1].[=CF]/[I:staff +1] ._D/[I:staff -1].[CF]/[I:staff +1].A,/[I:staff -1].[CF]/!<)! | %72
!ff![I:staff +1] .=C/[I:staff -1].[=FA]/!mf!!<(![I:staff +1].=F/[I:staff -1].[A=c]/[I:staff +1] .A/[I:staff -1].[c=f]/[I:staff +1].=c/[I:staff -1].[fa]/!<)! | %73
[I:staff +1] .=f/!ff![I:staff -1].[a=c']/!mf!!<(![I:staff +1] .A/[I:staff -1].[=c=f]/[I:staff +1] ._d/[I:staff -1].[cf]/[I:staff +1].A/[I:staff -1].[cf]/ | %74
[I:staff +1] .=c/[I:staff -1].[=fa]/[I:staff +1].=f/[I:staff -1].[a=c']/[I:staff +1] .a/[I:staff -1].[c'=f']/[I:staff +1].=c'/[I:staff -1].[f'a']/!<)! | %75
[I:staff +1] .=f'/!ff![I:staff -1].[a'=c'']/[I:staff +1] .a/[I:staff -1].[=c'=f']/[I:staff +1] ._d'/[I:staff -1].[c'f']/[I:staff +1].a/[I:staff -1].[c'f']/ | %76
[I:staff +1] .=f'/!ff![I:staff -1].[=c'a'=c'']/[I:staff +1] .a/[I:staff -1].[c'=f']/[I:staff +1] ._d'/[I:staff -1].[c'f']/[I:staff +1].a/[I:staff -1].[c'f']/ | %77
[I:staff +1] .=f'/!ff![I:staff -1].[=c'a'=c'']/[I:staff +1] .a/[I:staff -1].[c'=f']/[I:staff +1] ._d'/[I:staff -1].[c'f']/[I:staff +1].a/[I:staff -1].[c'f']/ | %78
[I:staff +1] .=f'/!ff![I:staff -1].[=c'a'=c'']/[I:staff +1] .a/[I:staff -1].[c'=f']/[I:staff +1] ._d'/[I:staff -1].[c'f']/[I:staff +1].a/[I:staff -1].[c'f']/ | %79
!<(![I:staff +1] .a'/!8va(![I:staff -1].[=f'=c''=g'']/[I:staff +1].a''/[I:staff -1].[f'c''g'']/[I:staff +1] .a''/[I:staff -1].[f'c''g'']/[I:staff +1].a''/[I:staff -1].[f'c''g'']/ | %80
[I:staff +1] .a''/[I:staff -1].[=f'=c''=g'']/[I:staff +1].a''/[I:staff -1].[f'c''g'']/[I:staff +1] .a''/[I:staff -1].[f'c''g'']/[I:staff +1].a''/"^toujours joyeux et bruyant"[I:staff -1].[f'c''g'']/!<)! | %81
[I:staff +1] .a''/[I:staff -1].[=f'=c''=g'']/[I:staff +1].a''/[I:staff -1].[f'c''g'']/!>(![I:staff +1] .a''/[I:staff -1].[f'c''g'']/[I:staff +1].a''/[I:staff -1].[f'c''g'']/ | %82
[I:staff +1] .a''/[I:staff -1].[=f'=c''=g'']/[I:staff +1].a''/[I:staff -1].[f'c''g'']/[I:staff +1] .a''/"^un peu large"[I:staff -1].[f'c''g'']/.e''/!f!.[f'c''=f'']/!8va)!!>)! || %83
[K:F#][M:4/4]!ffff!!ffff! x8 | x8 | x8 | x8 | x8 | x8 |!ffff! (6:4:6BcB=A=GA (B4 | %90
[I:staff +1] B8) |!ffff![I:staff -1] x8 | x8 | x8 | x8 | %95
 (3!tenuto!A2 !tenuto!B2 !tenuto!c2 !>!=e4- | =e4 !>!^d4 | %97
 (6:4:6!tenuto!=d!tenuto!=e!tenuto!d!tenuto!c!tenuto!B!tenuto!c x4 | x8 | x8 | x8 |!ffff! x8 | x8 | %103
"_"!ff![I:staff +1]{/[F,,,F,,]}[I:staff -2] .F/.[FAcf]/[I:staff +1].G/[I:staff -1].[GAcg]/[I:staff +1] .F/[I:staff -1].[FAcf]/[I:staff +1].D/[I:staff -1].[DFAd]/"_dim."!ff![I:staff +1] .C/[I:staff -1].[CFAc]/[I:staff +1].D/[I:staff -1].[DFAd]/[I:staff +1] .C/[I:staff -1].[CFAc]/[I:staff +1].A,/[I:staff -1].[A,CFA]/ | %104
[I:staff +1] .G,/[I:staff -1].[G,CG]/[I:staff +1].A,/[I:staff -1].[A,CFA]/[I:staff +1] .C/[I:staff -1].[CFAc]/[I:staff +1].D/[I:staff -1].[DFAd]/[I:staff +1] .C/[I:staff -1].[CFAc]/[I:staff +1].A,/[I:staff -1].[A,CFA]/[I:staff +1] .G,/[I:staff -1].[G,CG]/[I:staff +1].A,/!p![I:staff -1].[A,CFA]/ | %105
[I:staff +1][K:bass][K:bass][I:staff +1]{/[F,,,C,,]}[I:staff -2] .F,/.[F,A,CF]/!p![I:staff +1].G,/[I:staff -1].[G,A,CG]/[I:staff +1] .F,/[I:staff -1].[F,A,CF]/[I:staff +1].D,/[I:staff -1].[D,F,A,D]/[I:staff +1] .C,/[I:staff -1].[C,F,A,C]/[I:staff +1].D,/[I:staff -1].[D,F,A,D]/[I:staff +1] .F,/[I:staff -1].[F,A,CF]/[I:staff +1].D,/[I:staff -1].[D,F,A,D]/ | %106
!>(![I:staff +2]{/[F,,,C,,]}[I:staff -2] .F,/.[F,A,CF]/!p![I:staff +1].G,/[I:staff -1].[G,A,CG]/[I:staff +1] .F,/[I:staff -1].[F,A,CF]/"_dim."[I:staff +1].D,/[I:staff -1].[D,F,A,D]/[I:staff +1] .C,/[I:staff -1].[C,F,A,C]/[I:staff +1].D,/[I:staff -1].[D,F,A,D]/[I:staff +1] .F,/[I:staff -1].[F,A,CF]/[I:staff +1].D,/!pp![I:staff -1].[D,F,A,D]/!>)! | %107
[I:staff +2] .C,/[I:staff -1].[C,F,A,C]/[I:staff +1].D,/[I:staff -1].[D,F,A,D]/[I:staff +1] .F,/[I:staff -1].[F,A,CF]/[I:staff +1].D,/[I:staff -1].[D,F,A,D]/"^dim         -            -             -"!pp!!>(![I:staff +1] .F,/[I:staff -1].[F,A,CF]/[I:staff +1].D,/[I:staff -1].[D,F,A,D]/[I:staff +1] .C,/[I:staff -1].[C,F,A,C]/[I:staff +1].D,/[I:staff -1].[D,F,A,D]/!>)! | %108
!ppp!!<(![I:staff +1] .C,/"^po            -           co"[I:staff -1].[C,F,A,C]/[I:staff +1].=B,,/[I:staff -1].[=B,,F,=B,]/[I:staff +1] .C,/[I:staff -1].[C,F,A,C]/[I:staff +1].D,/[I:staff -1].[D,F,A,D]/!<)!!p!!>(![I:staff +1] .=E,/"^rit."[I:staff -1].[=E,=G,^B,=E]/[I:staff +1].^D,/[I:staff -1].[^D,=G,B,^D]/[I:staff +1] .E,/[I:staff -1].[E,G,B,E]/[I:staff +1].D,/[I:staff -1].[D,G,B,D]/!>)! | %109
!<(! z/ .[F,A,]/[I:staff +1].C,/"_accel."[I:staff -1].[F,A,]/[I:staff +1] .D,/[I:staff -1].[F,A,]/[I:staff +1].=E,/"_poco"[I:staff -1].[F,A,]/!<)!!p!!>(![I:staff +1] D,/[I:staff -1][F,A,]/[I:staff +1]=E,/"_rit."[I:staff -1][F,A,]/[I:staff +1] =D,/[I:staff -1][F,A,]/[I:staff +1]C,/[I:staff -1][F,A,]/!>)! | %110
!ppp!!<(! z/ [G,B,]/[I:staff +1]B,,/"_accel."[I:staff -1][G,B,]/[I:staff +1] =D,/[I:staff -1][G,B,]/[I:staff +1]=E,/"_poco"[I:staff -1][G,B,]/!<)!!p!!>(![I:staff +1] .F,/[I:staff -1].[G,B,]/[I:staff +1].=E,/"_rit."[I:staff -1].[G,B,]/[I:staff +1] .=D,/[I:staff -1].[G,B,]/[I:staff +1].E,/[I:staff -1].[G,B,]/!>)! | %111
!ppp!!<(! z/ .[A,D]/[I:staff +1].A,,/[I:staff -1].[A,D]/[I:staff +1] .^^F,/[I:staff -1].[A,D]/[I:staff +1].G,/[I:staff -1].[A,D]/!<)!!p!!>(![I:staff +1] .A,/[I:staff -1].[D^^F]/[I:staff +1].B,/[I:staff -1].[DF]/[I:staff +1] .A,/[I:staff -1].[DF]/[I:staff +1].G,/[I:staff -1].[DF]/!>)! | %112
!pp!!>(![I:staff +1] .A,/[I:staff -1].[D^^F]/[I:staff +1].G,/"^rit."[I:staff -1].[DF]/[I:staff +1] .^^F,/[I:staff -1].[A,D]/[I:staff +1].G,/[I:staff -1].[A,D]/[I:staff +1] .^^F,/[I:staff -1].[A,D]/[I:staff +1].^E,/[I:staff -1].[A,D]/[I:staff +1] .F,/[I:staff -1].[A,D]/[I:staff +1].D,/!pp![I:staff -1].[A,D]/!>)! || %113
!ppp!!<(! z/ .[=A,=D]/[I:staff +1].=A,,/[I:staff -1].[A,D]/"^poco affret."[I:staff +1] .=D,/[I:staff -1].[A,D]/[I:staff +1].=E,/[I:staff -1].[A,D]/[I:staff +1] .F,/[I:staff -1].[=A,=D]/[I:staff +1].G,/[I:staff -1].[A,D]/[I:staff +1] .=E,/[I:staff -1].[A,D]/[I:staff +1].G,/[I:staff -1].[A,D]/!<)! | %114
!<(![I:staff +1] .F,/[I:staff -1].[=A,=D]/[I:staff +1].G,/[I:staff -1].[A,D]/[I:staff +1] .=E,/[I:staff -1].[A,D]/[I:staff +1].G,/[I:staff -1].[A,D]/!<)!!>(![I:staff +1] .F,/[I:staff -1].[=A,=D]/[I:staff +1].=D,/[I:staff -1].[A,D]/[I:staff +1] .=A,,/[I:staff -1].[A,D]/[I:staff +1].=D,,/!pp![I:staff -1].[A,D]/!>)! | %115
!ppp!!<(! z/ .[G,C]/[I:staff +1].G,,/[I:staff -1].[G,C]/"^poco         af    -    fre    -    tan    -    -    do."[I:staff +1] .^E,/[I:staff -1].[G,C]/[I:staff +1].F,/[I:staff -1].[G,C]/!<)!!pp!!>(![I:staff +1] .G,/[I:staff -1].[C^E]/[I:staff +1].=A,/[I:staff -1].[CE]/[I:staff +1] .G,/[I:staff -1].[CE]/[I:staff +1].F,/[I:staff -1].[CE]/!>)! | %116
!ppp![I:staff +1] .G,/[I:staff -1].[CE]/[I:staff +1].F,/[I:staff -1].[G,C]/"^e        rall.         di        nuovo."[I:staff +1] .E,/[I:staff -1].[G,C]/[I:staff +1].F,/[I:staff -1].[G,C]/[I:staff +1] .E,/[I:staff -1].[G,C]/[I:staff +1].D,/[I:staff -1].[G,C]/[I:staff +1] .E,/[I:staff -1].[G,C]/[I:staff +1].C,/[I:staff -1].[G,C]/ || %117
!ppp!!<(! z/ .[C=E]/[I:staff +1].=E,/[I:staff -1].[CE]/[I:staff +1] .=A,/"^accel."[I:staff -1].[CE]/[I:staff +1].B,/[I:staff -1].[CE]/!<)!!pp!!>(![I:staff +1] .C/[I:staff -1].[C=E]/"^rit."[I:staff +1].=A,/[I:staff -1].[CE]/[I:staff +1] .=E,/[I:staff -1].[CE]/[I:staff +1].=A,,/[I:staff -1].[CE]/!>)! | %118
!ppp!!<(! z/ .[B,=E]/[I:staff +1].B,,/[I:staff -1].[B,E]/[I:staff +1] .F,/"^accel."[I:staff -1].[B,E]/[I:staff +1].G,/[I:staff -1].[B,E]/!<)!!pp!!>(![I:staff +1] .=A,/[I:staff -1].[B,=E]/[I:staff +1].F,/[I:staff -1].[B,E]/[I:staff +1] .G,/"^rit."[I:staff -1].[B,E]/[I:staff +1].=E,/[I:staff -1].[B,E]/!>)! || %119
!ppp!!<(! z/ .[B,=D]/[I:staff +1].=D,/[I:staff -1].[B,D]/[I:staff +1] .=G,/"^accel."[I:staff -1].[B,D]/[I:staff +1].=A,/[I:staff -1].[B,D]/!<)!!pp!!>(![I:staff +1] .B,/[I:staff -1].[B,D]/[I:staff +1].=G,/"^rit."[I:staff -1].[B,D]/[I:staff +1] .=E,/[I:staff -1].[B,D]/[I:staff +1].=G,,/[I:staff -1].[B,D]/!>)! | %120
!ppp!!<(! z/ .[=A,=D]/[I:staff +1].=A,,/"_accel."[I:staff -1].[A,D]/[I:staff +1] .=E,/[I:staff -1].[A,D]/[I:staff +1].F,/"_poco"[I:staff -1].[A,D]/!<)!!pp!!>(![I:staff +1] .=G,/[I:staff -1].[=A,=D]/[I:staff +1].=E,/"_rit."[I:staff -1].[A,D]/[I:staff +1] .F,/[I:staff -1].[A,D]/[I:staff +1].=D,/[I:staff -1].[A,D]/!>)! || %121
!pppp! z/ .[_B,=D]/[I:staff +1].=F,/[I:staff -1].[B,D]/[I:staff +1] .=G,/[I:staff -1].[B,D]/[I:staff +1].F,/[I:staff -1].[B,D]/"^rit."!<(![I:staff +1] .=A,/[I:staff -1].[_B,=D]/[I:staff +1].=F,/[I:staff -1].[B,D]/[I:staff +1] .=G,/[I:staff -1].[B,D]/[I:staff +1].F,/[I:staff -1].[B,D]/!<)! | %122
 z/!>(! .[_B,=D]/[I:staff +1].=G,/"_accel."[I:staff -1].[B,D]/[I:staff +1] .=A,/[I:staff -1].[B,D]/[I:staff +1].=F,/"_poco"[I:staff -1].[B,D]/[I:staff +1] .=A,/[I:staff -1].[_B,=D]/[I:staff +1].=F,/"_rit."[I:staff -1].[B,D]/[I:staff +1] .A,/[I:staff -1].[B,D]/[I:staff +1].=G,/[I:staff -1].[B,D]/!>)! | %123
!pppp! z/ .[=G,=D]/[I:staff +1].=E,,/[I:staff -1].[G,D]/[I:staff +1] ._B,,/[I:staff -1].[G,D]/[I:staff +1].=E,/[I:staff -1].[G,D]/!<(![I:staff +1] ._B,/[I:staff -1].[=G,=D]/[I:staff +1].=E,/[I:staff -1].[G,D]/[I:staff +1] ._B,,/[I:staff -1].[G,D]/[I:staff +1].=E,,/[I:staff -1].[G,D]/!<)! | %124
!>(! z/ .[=A,^C]/[I:staff +1].=E,/"_accel."[I:staff -1].[A,C]/[I:staff +1] .=A,/[I:staff -1].[C=E]/[I:staff +1].=B,/[I:staff -1].[CE]/!ppp![I:staff +1] .=D/[I:staff -1].[=E=A]/[I:staff +1].=B,/"_rit."[I:staff -1].[=DE]/[I:staff +1] .^C/[I:staff -1].[=A,E]/[I:staff +1].=A,/[I:staff -1].[^CE]/!>)! || %125
[K:treble]"^bien chanté"!pppp! z/ .[=E=G]/"_très éstompé"[I:staff +1].=G,/[I:staff -1].[EG]/[I:staff +1] .=C/[I:staff -1].[EG]/[I:staff +1].=D/[I:staff -1].[EG]/!ppp![I:staff +1] .=E/[I:staff -1].[=E=G]/[I:staff +1].=C/"_rit."[I:staff -1].[EG]/[I:staff +1] .=G,/[I:staff -1].[EG]/[I:staff +1].=C,/[I:staff -1].[EG]/ | %126
!pppp! z/ .[=D=G]/[I:staff +1].=D,/"_accel."[I:staff -1].[DG]/[I:staff +1] .=A,/[I:staff -1].[DG]/[I:staff +1].B,/[I:staff -1].[DG]/!ppp![I:staff +1] .=C/[I:staff -1].[=D=G]/[I:staff +1].=A,/"_rit."[I:staff -1].[DG]/[I:staff +1] .B,/[I:staff -1].[DG]/[I:staff +1].=G,/[I:staff -1].[DG]/ || %127
!ppp! z/ .[=D=F]/[I:staff +1].=F,/[I:staff -1].[DF]/[I:staff +1] ._B,/[I:staff -1].[DF]/[I:staff +1].=C/[I:staff -1].[DF]/[I:staff +1] .=D/[I:staff -1].[=D=F]/[I:staff +1]._B,/[I:staff -1].[DF]/"_rall."[I:staff +1] .=F,/[I:staff -1].[DF]/[I:staff +1]._B,,/[I:staff -1].[DF]/ | %128
!pppp! z/ .[=C=F]/[I:staff +1].=C,/"_accel."[I:staff -1].[CF]/[I:staff +1] .=F,/[I:staff -1].[CF]/[I:staff +1].=G,/[I:staff -1].[CF]/[I:staff +1] ._B,/[I:staff -1].[=C=F]/[I:staff +1].=G,/"_rit."[I:staff -1].[CF]/[I:staff +1] .=A,/[I:staff -1].[CF]/[I:staff +1].=F,/[I:staff -1].[CF]/ || %129
"^dolcissimo."!pppp! z/ .[=C=F]/[I:staff +1]._E,/[I:staff -1].[CF]/[I:staff +1] ._A,/[I:staff -1].[CF]/[I:staff +1].=C/[I:staff -1].[CF]/[I:staff +1] .=D/[I:staff -1].[=C=F]/[I:staff +1].=C/[I:staff -1].[CF]/"_rall."[I:staff +1] ._A,/[I:staff -1].[CF]/[I:staff +1]._E,/[I:staff -1].[CF]/ | %130
!<(![I:staff +1] _A,,/[I:staff -1].[=C=F]/[I:staff +1]._E,/[I:staff -1].[CF]/"_accel."[I:staff +1] ._A,/[I:staff -1].[CF]/[I:staff +1]._B,/[I:staff -1].[CF]/!<)!!>(![I:staff +1] ._A,/[I:staff -1].[=C=F]/[I:staff +1]._B,/[I:staff -1].[CF]/"_rit."[I:staff +1] .=D/[I:staff -1].[CF]/[I:staff +1].B,/[I:staff -1].[CF]/!>)! | %131
 z/ .[=C=F]/[I:staff +1]._E,/[I:staff -1].[CF]/[I:staff +1] ._A,/[I:staff -1].[CF]/[I:staff +1].=C/[I:staff -1].[CF]/[I:staff +1] .=D/[I:staff -1].[=C=F]/[I:staff +1].=C/[I:staff -1].[CF]/"_rit."[I:staff +1] ._A,/[I:staff -1].[CF]/[I:staff +1]._E,/[I:staff -1].[CF]/ | %132
!<(! z/ .[=C=D]/[I:staff +1]._A,/[I:staff -1].[CD]/[I:staff +1] ._B,/[I:staff -1].[CD]/[I:staff +1].=C/[I:staff -1].[CD]/!<)!!p!!>(![I:staff +1] .=D/[I:staff -1].[=C=D]/[I:staff +1].=C/[I:staff -1].[CD]/[I:staff +1] ._B,/[I:staff -1].[CD]/[I:staff +1]._A,/[I:staff -1].[CD]/!>)! || %133
!pppp! z/!p! .[^C^E]/[I:staff +1].G,/[I:staff -1].[CE]/"_accel."[I:staff +1] .^B,/[I:staff -1].[CE]/[I:staff +1].=B,/!<(![I:staff -1].[CE]/[I:staff +1] .^A,/[I:staff -1].[CE]/[I:staff +1].=A,/[I:staff -1].[CE]/[I:staff +1] .G,/[I:staff -1].[CE]/!<)![I:staff +1].C/[I:staff -1].[CE]/ | %134
!<(! z!pp![I:staff +1] .=A,,/[I:staff -1].=A,/[I:staff +1] .F,/[I:staff -1].[A,=D]/[I:staff +1].G,/[I:staff -1].[A,D]/!<)!!mp!!>(![I:staff +1] .B,/[I:staff -1].[=A,=D]/[I:staff +1].=A,/[I:staff -1].[A,D]/[I:staff +1] .C/[I:staff -1].[A,D]/"_rit."[I:staff +1].^B,/[I:staff -1].[A,D]/!>)! | %135
!<(! z[I:staff +1] .^^F,/[I:staff -1].[CE]/"_accel."[I:staff +1] .G,/[I:staff -1].[CE]/[I:staff +1].^B,/[I:staff -1].[CE]/!<)!!>(![I:staff +1] .=B,/[I:staff -1].[CE]/[I:staff +1].^A,/[I:staff -1].[CE]/[I:staff +1] .=A,/[I:staff -1].[CE]/[I:staff +1].G,/[I:staff -1].[CE]/!>)! | %136
[K:bass]"_rit." z[I:staff +1] .=A,,/[I:staff -1].F,/[I:staff +1] .=D,/[I:staff -1].F,/[I:staff +1].=E,/[I:staff -1].F,/[I:staff +1] .F,/[I:staff -1].[=A,=C]/[I:staff +1].G,/[I:staff -1].[A,C]/[I:staff +1] .=E,/[I:staff -1].[A,C]/[I:staff +1].F,/[I:staff -1] z/ || %137
[M:2/4] .[C,,G,,] z z2 | .[C,,=A,,] z z2 | .[C,,B,,] z .[C,,=A,,=D,] z | %140
 .[C,,G,,C,] z .[C,,B,,] z |!p! .F,.F,"^cresc.".F,.=E, |!<(! .=G,.F,.=E,.=D,!<)! | %143
!mf! !>!=E,.F, !>!=D,.E, | .C,.=D,.=E,.F, |!mp! .[B,,^D] z .[=A,D] z | %146
 .[=CD] z[K:treble] .[B,F] z |!mf! .=E.=F .=D.^D |!<(! .=E.^E.^^F.G!<)! | %149
[K:bass] .[=A,=E] z .[=G,=D] z | .[=F,=C] z .[=E,B,] z | .[!courtesy!=A,=E] z .[=G,=D] z | %152
 .[=F,=C] z .[=E,B,] z | [=A,=E] z !>![=E,B,] z | [=A,=E] z [=E,^D] z | %155
"_" .[=A,=E] .^G,/[I:staff -1].[=A,=C]/[I:staff +1] .=A,/[I:staff -1].[C=E]/[I:staff +1].=C/[I:staff -1].[EA]/ | %156
[I:staff +1][K:treble]"_" .=E/[I:staff -1].[=A=c]/[I:staff +1].A/[I:staff -1].[c=e]/[I:staff +1] .=c/[I:staff -1].[e=a]/[I:staff +1].e/[I:staff -1].[a=c']/ | %157
[I:staff +1] .[=EB] z .[B,FB] z | .[=A,=E=A] z .[B,FB] z | .[=EB] z .[B,FB] z | %160
 .[=A,=E=A] z .[B,FB] z |"_"!fff! [=EB] x x2 | x4 | x4 | x4 |"_" x4 |"_" x4 |"_" x4 | x4 || %169
[M:4/4]!ffff! x/ z .f/[I:staff -1].[fbf']/[I:staff +1] .f/[I:staff -1].[fbf']/[I:staff +1].=e/[I:staff -1].[=eb=e']/[I:staff +1] .g/[I:staff -1].[gbg']/[I:staff +1].f/[I:staff -1].[fbf']/[I:staff +1] .=e/[I:staff -1].[=eb=e']/.d/.[dbd']/ | %170
[I:staff +1] z/[I:staff -1] ((.[=e=e']/.[fa]/))[I:staff +1].=e/[I:staff -1].[efae']/[I:staff +1] .e/[I:staff -1].[efae']/[I:staff +1].d/[I:staff -1].[dfad']/[I:staff +1] .f/[I:staff -1].[faf']/[I:staff +1].=e/[I:staff -1].[=efa!courtesy!=e']/ !>!d!>!c | %171
 !>!B[I:staff +1] .c/[I:staff -1].[cdgc']/[I:staff +1] .B/[I:staff -1].[Bdfb]/[I:staff +1].G/[I:staff -1].[GBdg]/[I:staff +1] .F/[I:staff -1].[FBdf]/[I:staff +1].G/[I:staff -1].[GBdg]/[I:staff +1] .F/[I:staff -1].[FBdf]/[I:staff +1].D/[I:staff -1].[DFBd]/ | %172
[I:staff +1] .C/[I:staff -1].[CFBc]/[I:staff +1].D/[I:staff -1].[DFBd]/[I:staff +1] .F/[I:staff -1].[FBdf]/[I:staff +1].G/[I:staff -1].[GBdg]/[I:staff +1] .B/[I:staff -1].[Bdfb]/[I:staff +1].c/[I:staff -1].[cfbc']/[I:staff +1] .d/[I:staff -1].[dfbd']/.f/.[fbd'f']/ | %173
[M:4/4][I:staff +1] z .f/[I:staff -1].[fbf']/[I:staff +1] .f/[I:staff -1].[fbf']/[I:staff +1].=e/[I:staff -1].[=eb=e']/[I:staff +1] .g/[I:staff -1].[gbg']/[I:staff +1].f/[I:staff -1].[fbf']/[I:staff +1] .=e/[I:staff -1].[=eb=e']/.d/.[dbd']/ | %174
[I:staff +1] z .=e/[I:staff -1].[=efa=e']/[I:staff +1] .e/[I:staff -1].[efae']/[I:staff +1].d/[I:staff -1].[dfad']/[I:staff +1] .f/[I:staff -1].[faf']/[I:staff +1].=e/[I:staff -1].[=efa=e']/ (d/[fad']/)!>!c/[I:staff +1] z/ | %175
 z .c'/[I:staff -1].[c'd'f'c'']/[I:staff +1] .b/[I:staff -1].[bd'f'b']/[I:staff +1].g/[I:staff -1].[gbd'g']/[I:staff +1] .f/[I:staff -1].[fbd'f']/[I:staff +1].g/[I:staff -1].[gbd'g']/[I:staff +1] .f/[I:staff -1].[fbd'f']/[I:staff +1].d/[I:staff -1].[dfbd']/ | %176
[I:staff +1] .c/[I:staff -1].[cfbc']/[I:staff +1].d/[I:staff -1].[dfbd']/[I:staff +1] .c/[I:staff -1].[cfbc']/[I:staff +1].B/[I:staff -1].[Bdfb]/[I:staff +1] .G/[I:staff -1].[GBdg]/[I:staff +1].F/[I:staff -1].[FBdf]/[I:staff +1] .D/[I:staff -1].[DFBd]/[I:staff +1].C/[I:staff -1].[CGBc]/ | %177
[I:staff +1][K:bass] z[I:staff -1] .[=A,B,D]/"_strepitoso."[I:staff +1].G,/[I:staff -1] .[=G,B,D]/[I:staff +1].F,/[I:staff -1].[^E,B,D]/!>(![I:staff +1].F,/!sfz![I:staff -1] !>![B,=CD]/[I:staff +1].^A,/[I:staff -1].[=A,B,D]/[I:staff +1].^G,/[I:staff -1] .[=G,B,D]/[I:staff +1].F,/[I:staff -1].[E,B,D]/[I:staff +1].F,/!>)! | %178
!>(![I:staff -1] !>![B,=CD]/[I:staff +1].^A,/[I:staff -1].[=A,B,D]/[I:staff +1].^G,/[I:staff -1] .[=G,B,D]/[I:staff +1].F,/[I:staff -1].[E,B,D]/[I:staff +1].F,/!>)!!f![I:staff -1] !>![B,=CD]/[I:staff +1].^A,/[I:staff -1].[=A,B,D]/[I:staff +1].^G,/[I:staff -1] .[=G,B,D]/[I:staff +1].F,/[I:staff -1].[E,B,D]/[I:staff +1].F,/ | %179
[M:4/4]!ff!!<(! z[I:staff -1] .B,/[I:staff +1].[F,C]/[I:staff -1] .F/[I:staff +1].[=A,G]/[I:staff -1].B/[I:staff +1].[DG]/[I:staff -1] .F/[I:staff +1].[F,C]/"^simili."[I:staff -1].B,/[I:staff +1].[F,C]/[I:staff -1] .F/[I:staff +1].[A,G]/[I:staff -1].B/[I:staff +1].[DG]/!<)! | %180
!fff!!>(![I:staff -1] .F/[I:staff +1].[F,C]/[I:staff -1].B,/[I:staff +1].[F,C]/"^élargir"[I:staff -1] .F/[I:staff +1].[=A,G]/[I:staff -1].B/[I:staff +1].[DG]/[I:staff -1] .F/[I:staff +1].[F,C]/[I:staff -1].B,/[I:staff +1].[F,C]/[I:staff -1] .F/[I:staff +1].[=A,G]/[I:staff -1].B/!>)!!ff![I:staff +1].[DG]/ | %181
!ffff! x3/2 ((!stemless!C/ [=A,D]/)) z/ z/[K:treble] ((!stemless!c/ [=Ad]/)) z/ z/ ((!stemless!c'/ [=ad']/)) z/ z/!8va(! !stemless!c''/ | %182
 [=a'b'd'']/ z/ z [d'g']/ z/ z [=abd']/ z/ z [dg]/ z/ z!8va)! | %183
[M:2/4]!ffff! (!>![Bf]/c/B/.d/) (!>![c=a]/d/"_rit."f/.c/) | (!>![Bf]/c/B/.d/) (!>![c=a]/d/f/.c/) | %185
!ffff! (!>![Bf]/c/[B=a]/.c/)"_rit." (!>![Bf]/c/[Ba]/.c/) | %186
 (!>![Bf]/c/[B=a]/.c/) (!>![Bf]/=c/)(!>![c=ea]/=d/) |!p! !>![=d=gb].=g .g.d | .f=a/=g/ =d^e | %189
 .f.=a .=c'/ z/ .=d/ z/ | .e.=a ^B(c/=d/) | =g(A/=B/) (a/=b/)(c/=d/) | (e/f/)=g =c'b | %193
!<(! =a^B/c/ (=d/B/)(f/c/)!<)! |!mf! [f=a]/^e/"^en dehors la partie supérieure.".f .f.a | %195
"^bien détaché." =g3!<(! (=a!<)! | =c'_b =a=g | =f3 =e | %198
!f!!<(! .[=A=d]/).[=c=e]/.[d=f]/.[e=g]/ .[f=a]/.[eg]/.[fa]/.[g=c']/!<)! |!<(! (!>!=d'3 =e'!<)! | %200
!ff!!>(! =g'=f'=e'=d' | =c'3 b |"_cresc." =a2)!>)!"^toujours marqué."!ff! !>!=e!>!e | %203
 (!>!=a/g/a-)!<(! (ab!<)! | =d'(c'/)=a/) (gg | =a3 b | !>![=d'=e'](^b/)c'/)!fff! (=eg | =a3 b | %208
[K:treble] =e'^d') (=e^g | =a3 b | ^e'^d') (=eg |!sfz! x2 f'/) z/ (_g'/b/) | %212
 (=g'/_e'/)(=f'/_d'/) (e'/b/)(g'/e'/) |[K:treble]!sfz! (=ac' e'/) z/ (_e'/b/) | %214
 (=g'/_e'/)(=f'/_d'/) (e'/b/)(g'/e'/) | (=f'/^c'/)(_e'/b/) (=g'/e'/)f'/_d'/ | %216
 (_e'/b/)(=g'/e'/) (=f'/_d'/)(e'/b/) | (=g'/_e'/)(=f'/_d'/) (e'/b/)(g'/e'/) | %218
!ffff! (!>!a'/g'/)(!>!=a'/^e'/) (!>!e'/c'/)(!>!a'/^b/) || %219
[M:3/8]!ffff!!<(!{f'^g'=a'b'} [f'a'c'']!8va(!.c''.b'!<)! |!>(! .=d''.c''.b'!>)! | %221
!<(! .b'.=a'.g'!<)! |!>(! .c''.b'.=a'!>)! |!<(! .g'.!courtesy!=a'.g'!<)! |!>(! .b'.=a'.g' | %225
 .f'.=e'.=d'!8va)!!>)! |!<(! .c'.c'.c' | .f'.f'.g'!<)! |[K:treble]!>(! .b'.=a'.g' | %229
 .f'.=e'.=d'!>)! |!<(! .c'.c'.c' | .f'.f'.g'!<)! |!>(! .b'.=a'.g' | .f'.=e'.=d'!>)! | %234
!<(! .c'.g'.c''!<)! |!fff!"^con brio" !>![cfc'].[cc'].[Bb] | !>![=df=d'].[cc'].[Bb] | %237
 !>![B=d=eb].[=A=a].[Gg] | !>![c=e=ac'].[Bb].[=A=a] | !>![Gcg].[=A=a].[Gg] | %240
 !>![Bcfb].[=A=a].[Gg] | !>![FGf].[=E=e].[=D=d] | !>![CGc].[Cc].[Cc] | !>![Fcf].[Ff].[Gg] | %244
 !>![B=c=db].[=A=a].[Gg] | !>![F=Af].[=E=e].[=D=d] | !>![CGc].[cc'].[cc'] | %247
 !>![fc'f'].[fc'f'].[gg'] | !>![b=d'f'b'].[=a=a'].[gg'] | !>![fgf'].[=e=e'].[=d=d'] | %250
 !>![cgc'].[Cc].[Cc] | !>![Fcf].[Ff].[Gg] |!<(! !>![=Bdf=b].[=A=a].[Gg] | %253
[I:staff +1] !>!F[I:staff -1].[Gg].[=A=a] | !>![=Bdf=b].[!courtesy!=A!courtesy!=a].[Gg] | %255
[I:staff +1] F[I:staff -1].[Gg].[=A=a] |[K:bass] !tenuto![^B,,,^B,,]3 |[K:treble] z3 | %258
[K:bass] !tenuto![^B,,,^B,,]3 |[K:treble] z3!<)! | %260
[K:bass]!ffff!!<(! !tenuto![^B,,,^B,,]3-[K:treble] | %261
[K:treble] (4:3:2x[K:bass]"^""^" [^B,,,^B,,]3-[K:treble] | %262
 (4:3:2x[K:bass]"_" [^B,,,^B,,]3-[K:treble] | (4:3:2x[K:bass] [^B,,,^B,,]3[K:treble]!<)! | %264
[K:treble]"_"{/x} [df=a^bd']3- | [dfabd']3- | [dfabd']3- | [dfabd']3- | [dfabd']3- | [dfabd']3- | %270
 x3 | x3 ||[M:4/4][K:bass]!p!"_2 " x8 | (F,2 C4) (D=E | C8) |"_" z2 D3 C DB, | B,8 | %277
 z2 =D3 B, C=A, | =A,8 |"_" z =G,!<(! =C=D=E!<)!!>(!FEC!>)! | =C8 | %281
"_" z2!<(! (C3!<)!!>(! =D C=A,)!>)! | F,8 |!pppp!!pppp! z2 z2 (!tenuto!=D4 | %284
 !tenuto!B,4 !tenuto!=D4 | !tenuto!B,4"^rit." !tenuto!=D4 | !tenuto!B,4) !tenuto!=D4 | %287
"_" z2 z2[K:treble]!pppp! ((!tenuto![dg]4 | !tenuto![cf]4[K:bass][K:treble] !tenuto![Ad]4 | %289
 [Fc]2-))[K:bass][K:treble] [Fc]3/2[K:bass] z/[K:bass]"^dolce."!p!!<(! (C,4!<)! | %290
!mp!!>(! F,4!>)! =E,4) |!p!"_. a  chaque note" (=D,6!<(! =E,2!<)! | %292
"^bien chanté et rit. molto."!>(! =F,2{=E,=F,} E,2 =D,2 E,2)!>)! |"_" [^C,^F,]8 |"_" [C,F,]8 | %295
[K:treble]"_" [Fcf]8 |"_" [CFc]6- [CFc][K:bass] z |"_" x8 | %298
[K:treble]"^effleurer la note, la laissant vibrer" f2-[K:bass][K:treble] f z z2 z2 |"_" [F,CF]8- | %300
 [F,CF]8 |[K:bass]!pp! F,,, z z2 z2 z2 |] %302
V:3
 z/ | .[F,,C,] z z2 | z4 | .[F,,C,] z z2 | z4 | .[F,,C,] z z2 |!pp! z4 | .[F,,C,] z z2 | %8
!pp! !arpeggio!.[F,,C,A,] z z2 | !arpeggio!.[F,,D,G,] z z2 | .[F,,C,^E,] z z2 | %11
 !arpeggio!.[F,,C,A,] z z2 | .[F,,^^C,^D,] z .[F,,=E,^E,] z | .[F,,^C,A,] z z2 | .=E,.^D,.=D,.C, | %15
 .^E, z z2 |"^sec." .C, z z2 |"^sec." .D, z z2 |"^sec." .E, z z2 |"^sec." .^E, z z2 | %20
"^sec." .C, z z2 |"^sec." .D, z z2 |"^sec." .E, z z2 |"^sec." .^E, z[K:treble] x z | %24
[K:bass]"_sec." .[F,CF] z z2 |"_sec." .[F,DF] z z2 |"_sec." .[F,B,E] z z2 |"_sec." .[F,CF] z z2 | %28
"_sec." .[F,^B,=D] z z2 |"_sec." .[F,CA] z z2 |"_sec." .[F,E] z"_sec." .[F,,F,] z | %31
"_sec." .[F,B,] z[K:treble] .A.G | .A.G.A.^E | .F.^D.=E.D |"_"!<(!!ped! (=DCDF!<)! | %35
!>(! ^E!ped-up!FAG)!>)! | .A.G.A.^E | .F.^D.=E.D |"_"!ped! =DCDF | .^E!ped-up! z ^e z | %40
{/G} .[FA] z{/G} .[B,A] z |{/^^F} .[EG] z{/^D} .[G,E] z |{/^D} .[F,E] z{/^E} .[B,F] z | %43
{/^^F} .[EG] z{/=E} .[C^E] z |{/^B,} .[F,C] z{/^^C} .[A,^D] z |{/^^F} .[CG] z{/^D} .[^A,E] z | %46
{/^^F} .[EG] z"_"{/_E} .[_B,_F] z | .[_E,_E] z z z | (!>!_c_Bc).=G | (!>!_B._A)(!>!_d._c) | %50
"_"!ped! ._c._B.=A._A!ped-up! | %51
"_"!ped! ._G!<(! ._B/!ped-up![I:staff -1].[d=f]/[I:staff +1] ._e/[I:staff -1].[e_g]/[I:staff +1].=f/[I:staff -1].[f_b]/!<)! | %52
[I:staff +1] (!>!_g=f .g2) | (!>!=f._e) (!>!_a._g) | .=e z .=f z | %55
"_" ._d z[K:bass]"_" [_E,_E] z |"_" .[_D,_D] z"_" .[=A,,=A,] z | %57
"_" .[_B,,_B,] z"_" .[_D,,_D,] z |"_" .[_E,,_E,] z"_" .[=E,,=E,] z | %59
"_" .[=F,,=F,] z"_" .[_E,_E] z |"_" .[_D,_D] z"_" .[=A,,=A,] z | %61
"_" .[_B,,_B,] z"_" .[_D,,_D,] z |"_" .[_E,,_E,] z"_" .[=C,,=C,] z | %63
 .[=F,,=F,].[E,,E,].[_E,,_E,].[=C,,=C,] |"_" !tenuto![_D,,_D,] z"_" !>![_G,_G]2 | %65
"_" !tenuto![=C,,=C,] z[K:treble]"_" !>![=C=c]2 | %66
[K:bass]"_" !tenuto![=F,,=F,] z[K:treble]"_" !>![_E_e]2 | %67
[K:bass]"_" !tenuto![_D,,_D,] z[K:treble]"_" !>![_B,_B]2 | %68
[K:bass]"_" !tenuto![_G,,_G,] z[K:treble]"_" [_G_d]2 | %69
[K:bass]"_" !tenuto![=C,,=C,] z[K:treble]"_" ((!>![_E_e]2 | %70
"_" !tenuto![=E=e])) z"_" !>![=C=E]2 |[K:treble]"_" .[=F,=C=A] x x x |"_" x x x z | %73
"_" x"_" x x z |"_" x x x z |"_" x"_" x x z |"_" x x x z |"_" x x x z |"_" x x x z | %79
!fff!"_"!ped! x4 | x4 | x4 | x4!ped-up! || %83
[K:F#][M:4/4][K:bass]"_bien marquer la basse""_"!ped!{/[F,,,F,,]} [F,F]8!ped-up! | %84
"_"!ped!{/[F,,,F,,]} !>![G,G]6[K:treble] !>![cb]7/4!ped-up![K:bass]"_"!ped!{/[F,,,F,,]} [A,A]/4 | %85
"_" !>![A,A]8- | [A,A]8!ped-up! | %87
!ffff!"_"!ped!{/[F,,,F,,]} !>![A,A]6- [A,A]!ped-up![K:treble]!tenuto![B,B] | %88
"_" !>![=D=d]4 !>![Cc]4 |[K:bass]"_"!ped!{/[F,,,F,,]} (6:4:6B,CB,=A,=G,A, (!>!B,4- | %90
[K:treble] B,8)!ped-up! |[K:bass][K:bass]"_"!ped!{/[F,,,F,,]} [F,F]8!ped-up! | %92
"_"!ped!{/[F,,,F,,]} [G,G]6[K:treble]!f! [cb]7/4!ped-up![K:bass]"_"!ped!{/[F,,,F,,]} [A,A]/4 | %93
!ffff!"_" !>![A,A]8- | [A,A]8!ped-up! | %95
"_"!ped!{/[F,,,F,,]} (3A,2 B,2 C2!ped-up!"_"!ped!{/[F,,,F,,]} =E4- | %96
 =E4!ped-up!"_"!ped! ^D4!ped-up! |[K:bass]!ffff!"_"!ped!{/[F,,,F,,]} (6:4:6=D=EDCB,C =D4- | %98
 =D8!ped-up! |[K:bass]"_"!ped!{/[F,,,F,,]} [F,F]8!ped-up! | %100
"_"!ped!{/[F,,,F,,]} [G,G]6[K:treble] [cb]7/4!ped-up![K:bass]{/[F,,,F,,]} [A,A]/4 | %101
"_"!ffff!!ped! !>![A,A]8- | [A,A]8!ped-up! |!ped! z8 | z8!ped-up! |!ped!"_" z8!ped-up! | %106
!ped!"_"!ped! z8!ped-up! |!pp! x8 |"_"!ped! F,,4- F,,4!ped-up! | %109
!ped!!ppp!"_" F,,4- F,,4!ped-up! |!ped! =E,,4- E,,4!ped-up! | %111
!ped!"_(1) Les points d'orgue virgulés doivent être considèrés comme des véritables respirations.""_" !tenuto!D,,4- D,,4-!ped-up! | %112
 D,,4- D,,4 ||!ped!"_" !tenuto!=D,,4- =D,,4 | =D,,4- =D,,4!ped-up! | %115
"_"!ped! !tenuto!C,,4- C,,4- | C,,4- C,,4!ped-up! ||"_"!ped! !tenuto!=A,,4- =A,,4!ped-up! | %118
"_"!ped! !tenuto!=E,,4- =E,,4!ped-up! ||"_"!ped! !tenuto!=G,,4- =G,,4!ped-up! | %120
"_"!ped! !tenuto!=D,,4- =D,,4!ped-up! ||"_"!ppp!!ped! _B,,,4- B,,,4!ped-up! | %122
"_"!ped! _B,,,4- B,,,4!ped-up! |"_"!ped! _B,,,4- _B,,,4!ped-up! | %124
"_"!<(!!ped! =A,,,4-!<)!!>(! =A,,,4!ped-up!!>)! || %125
"_"!<(!!ped! !tenuto!=C,4-!<)!!>(! =C,4!ped-up!!>)! | %126
"_"!<(!!ped! =G,,4-!<)!!>(! =G,,4!ped-up!!>)! || %127
"_"!<(!!ped! !tenuto!_B,,4-!<)!!>(! _B,,4!ped-up!!>)! |"_"!ped! !tenuto!=F,,4- =F,,4!ped-up! || %129
!p!"_"!ped! !tenuto!_A,,4- _A,,4!ped-up! |"_"!ped! !tenuto!_A,,4-!pp! _A,,4!ped-up! | %131
!pp!"_"!ped! !tenuto!_A,,4- _A,,4!ped-up! |"_"!ped! !tenuto!_A,,4- _A,,2- A,, z!ped-up! || %133
"_"!ped! !tenuto!C,,4- C,,4!ped-up! |"_"!ped! !>!C,,4- C,,4!ped-up! | %135
"_"!ppp!!ped! C,,4- C,,4!ped-up! |"_"!ppp!!ped! !tenuto!C,,4- C,,4!ped-up! ||[M:2/4] z4 | z4 | %139
 z4 | z4 | z4 | z4 | z4 | z4 | z4 | z4 | z4 | z4 | z4 | z4 | z4 | z4 | z4 | z4 | z4!ped! | %156
 z4!ped-up! | z4 | z4 | z4 | z4 |!ped! z4 | z4 | z4 | z4!ped-up! |!ped! z4!ped-up! | %166
!ped! z4!ped-up! |!ped! z4!ped-up! |!ped! z4!ped-up! || %169
[M:4/4]!ffff!!ped!({/[B,,,B,,]} x/[K:treble]"_" !>![B,FB]8)!ped-up! | %170
[K:bass]!ped!({/[B,,,B,,]} x/[K:treble]"_" !>![CFc]6)"_" !>![F=e]7/4"_"!ped! [Dd]/4!ped-up! | %171
 !>![Dd]8- |!ped! [Dd]8!ped-up! | %173
[M:4/4][K:bass]!ped!({/!fermata![B,,,B,,]} (33:32:2!fermata!x/4-[K:treble]"_" [DFBd]8)!ped-up! | %174
[K:bass]!ped!({/!fermata![B,,,B,,]} (25:24:2!fermata!x/4-[K:treble] [=EFA=e]6) [Fe]3/2 z/4"_"!ped! [FBdf]/4!ped-up! | %175
"^tumultueux." !>![FBdf]8- | [FBdf]8 |[K:bass]"_" [B,,,F,,B,,]8- | [B,,,F,,B,,]8 | %179
[M:4/4]"_" !>![=A,,,B,,]8- | [A,,,B,,]8 |"_"!ffff!!ped! !>![=A,,,B,,]8-!ped-up! | %182
 [A,,,B,,]4- [A,,,B,,] z z2 |[M:2/4][K:treble]"_"!ped! !>![D=A] z !>!g z | x!ped-up! %184
"_"!ped! !>![D=A] z !>!g!ped-up! z |"_"!ped! !>![D=A].g !>![DA]!ped-up!.g | %186
 !>![D=A].g!ped-up!"_"!ped! !>![=DA].f | %187
[K:bass]!f!!ped! !>![=D,,=D,][K:treble]"_marcato e senza pédale".=d.d.=c!ped-up! | (!>!=e=d).=c.B | %189
 z .f .=g z | (!>!=d=c)[=Bd]=A | z .=D .=g z | (!>!=cB).=A.=G | (!>!FE=E[=A,=A]) |"_" =d.c.=c.f | %195
"_"!ped! !tenuto!_B,!ped-up! z x (=c/F/) |"_" (=A/^G/=G/=E/)"_" ._B,._B | %197
"_"!ped! .=A,.^G.=A!ped-up!.c |"_" .=F/.=G/.=A/._B/!ped! .=c/.B/!ped-up!.c/.=e/ | %199
"_" =f/=g/=e/g/ f/ z/ f |"_" .=a.=b.=f'.b |"_" .=E.=e.g.=d' | %202
"_"!ped! !>![=A,=E^c] z"_"!ped-up!!ped! !>![G,EG] z!ped-up! | %203
"_"!ped! !>!F>=E"_"!ped-up!!ped! (^E/F/G/=A/)!ped-up! | %204
"_"!ped! (^A/B/=A/) z/"_"!ped-up!!ped! .=e.b!ped-up! | %205
"_"!ped! (!>![Fc].=e)"_" .[Bd].=a!ped-up! | %206
"_" (!>!=e.[=A=a])[K:bass]"_  à chaque temps."!<(! !tenuto![=D,=D]!tenuto![=C,=C] | %207
 !tenuto![B,,B,]!tenuto![=A,,=A,]!tenuto![=G,,=G,]!tenuto![=F,,=F,]!<)! | %208
 !tenuto![_E,,_E,].[_D,,_D,]/!fff! z/!<(! !tenuto![=D,=D]!tenuto![=C,=C] | %209
 !tenuto![B,,B,]!tenuto![=A,,=A,]!tenuto![=G,,=G,]!tenuto![=F,,=F,]!<)! | %210
 !tenuto![_E,,_E,].[_D,,_D,]/ z/ !tenuto![=D,=D]!tenuto![=C,=C] | %211
!ped! [B,,B,][B,,,B,,]/ z/!ped-up![K:treble]"_ben marcato" .=a.=g | .b.=a.=g.b | %213
[K:bass]!ped! !tenuto![B,,B,].[B,,,B,,]/!ped-up! z/[K:treble] .=a.=g | .=b.=a.=g.b | %215
[K:bass]!fff!"_"!ped! z[K:treble] =g!ped-up! b.=a | .=g[K:bass][K:treble].b"^rit.".=a.g | %217
 b[K:bass][K:treble].=a.=g.b | %218
[K:bass]"_"!ped! !tenuto![^D,,^D,]!tenuto![D,^D][K:treble]!tenuto![Dd]"_"!ped-up!!ped!!>![=D=A=d]!ped-up! || %219
[M:3/8][K:bass]"_" !tenuto![C,,C,] z2 |[K:treble]"_"!ped!{/e} .[Bf] z2 | x!ped-up! %221
{/^^f} .[=eg] z2 |{/d} .[=A=e] z2 |{/^^d} .[c^e] z2 |"_"!ped!{/^B} .[Fc]!ped-up! z2 | %225
"_"!ped!{/g} [=d=a]!ped-up! z2 |"_"!ped!{/^^d} [c^e]!ped-up! z2 |"_"!ped!{/^B} [Fc]!ped-up! z2 | %228
[K:treble]!ped!{/e} .[=Bf]!ped-up! z2 |!ped!{/^^f} .[=dg]!ped-up! z2 | %230
!ped!{/^^d} .[c^e]!ped-up! z2 |!ped!{/^B} .[Fc]!ped-up! z2 |!ped!{/e} .[=Bf]!ped-up! z2 | %233
!ped!{/^^f} .[=dg]!ped-up! z2 |!ped!{/^^d} .[c^e]!ped-up! z2 |[K:bass]!ped! !>![F,C=A]!ped-up! z2 | %236
!ped! !>![B,F=A]!ped-up! z2 |!ped! !>![=E,B,G]!ped-up! z2 |!ped! !>![=A,=E=A]!ped-up! z2 | %239
!ped! !>![C,B,^E]!ped-up! z2 |!ped! !>![F,CF]!ped-up! z2 |!ped! !>![B,,F,=D]!ped-up! z2 | %242
!ped! !>![C,G,E]!ped-up! z2 |!ped! !>![F,,C,=A,]!ped-up! z2 |!ped! !>![=D,,=A,,F,]!ped-up! z2 | %245
!ped! !>![^B,,=A,=D]!ped-up! z2 |!ped! !>![C,G,E]!ped-up! z2 |!ped! !>![F,,C,=A,]!ped-up! z2 | %248
!ped! !>![=D,,=A,,F,]!ped-up! z2 |!ped! !>![B,,F,G,=D]!ped-up! z2 |!ped! !>![C,G,E]!ped-up! z2 | %251
!ped! !>![F,,C,=A,]!ped-up! z2 |!ped! !tenuto![^B,,,^B,,]3!ped-up! |[K:treble] z3 | %254
[K:bass]!ped! !tenuto![^B,,,^B,,]3!ped-up! |[K:treble] x3 |[K:bass]!ped! z3!ped-up! | z3 | %258
!ped! z3!ped-up! | z3 |!ped! z3!ped-up! | z3 | z3 | z3 |!ped! x3!ped-up! | z3 | z3 | z3 | z3 | z3 | %270
 z3 | z3 ||[M:4/4]!ped! z8!ped-up! | z8 | z8!ped!!ped-up! | z8 | z8!ped!!ped-up! | z8 | %278
 z8!ped!!ped-up! | z8 | z8!ped-up!!ped! | z8 | z8!ped-up!!ped! | z8 | z8 | z8 | z8 | %287
!ped! z8!ped-up! | z8 | z8!ped!!ped-up! | z8 | z8 | z8 | z8 | z8 | z8 | z8 | z8 | z8 | z8 | z8 | %301
 z8 |] %302
V:4
 x/ | x4 | x4 | x4 | x4 | x4 | x4 | x4 | .[CF] z z2 | !arpeggio!.[DF] z z2 | .[DG] z z2 | %11
 !arpeggio![CF] z z2 | .=C z z2 | .[^CF] z z2 | .B, z z2 | .G, z z2 | .A, z z2 | .=C z z2 | %18
 .B, z z2 | .G, z z2 | .A, z z2 | .=C z z2 | .B, z z2 | .G, x x2 | .c.c.c.B | .d.c.B.A | %26
 .B z z .A | .c.B.A.G | .A z z .G | .B.A.G.F | .G z z .E | C x ^B=B | c=c^c=d | .c.^B.=B.=c | %34
 (B3 G | B) z ^B=B | .c.^B.c.d | .c.^B.=B.=c | (B3 G | (^^F)G)(BG) | .[cf] z .[^df] z | .e z .B z | %42
 .c z .[A^d] z | .e z .B z | .A z .[F^B] z | .c z .G z | .^A z .[_D_A] z |{/=D} .[_D=G] z .=d._d | %48
 ._e3 .e | ._e z .e z | .=A._B._c.=d | _B x3 | (_b=a.b)._c' | _b z b z | =g=e_e=a | =f z x2 | %56
 z2 .[=C_E=F] z | [=f_b] x f x | z2 [_G,_B,=C] z | x4 | x4 | x4 | _B z B z | x4 | x4 | x4 | x4 | %67
 x4 | x4 | x4 | x4 | x4 | x4 | x4 | x4 | x4 | x4 | x4 | x4 | x/!8va(! x7/2 | x4 | x4 | x4!8va)! || %83
[K:F#][M:4/4] x8 | x8 | x8 | x8 | x8 | x8 | x8 | x8 | x8 | x8 | x8 | x8 | x8 | x8 | x8 | x8 | x8 | %100
 x8 | x8 | x8 | x8 | x8 |[K:bass][K:bass] x8 | x8 | x8 | x8 | x8 | x8 | x8 | x8 || x8 | x8 | x8 | %116
 x8 || x8 | x8 || x8 | x8 || x8 | x8 | x8 | x8 ||[K:treble] x8 | x8 || x8 | x8 || x8 | x8 | x8 | %132
 x8 || x8 | z z/ x/ x2 x4 | x8 |[K:bass] z z/ x/ x2 x4 ||[M:2/4] x4 | x4 | x4 | x4 | %141
 .[F,,C,] z z2 | F,, z z2 | .F,, z z2 | .F,, z z2 | x4 | x2[K:treble] x2 | =E, z =C z | %148
 B, z =E, z |[K:bass] x4 | x4 | x4 | x4 | x4 | x4 | x4 |[K:treble] x4 | x4 | x4 | x4 | x4 | x4 | %162
 x4 | x4 | x4 | x4 | x4 | x4 | x4 ||[M:4/4] x17/2 | x17/2 | x8 | x8 |[M:4/4] x8 | x8 | x8 | x8 | %177
[K:bass] x8 | x8 |[M:4/4] x8 | x8 | x7/2[K:treble] x4!8va(! x/ | x8!8va)! |[M:2/4] x4 | x4 | x4 | %186
 x4 | B/A/^^G/A/ B/A/^G/=A/ | B/=c/B ^G/=A/^^F/G/ | (G/=A/)(^c/=d/) (e/f/)^^F/G/ | %190
 G/=A/^c/=d/ E/^F/^B | (c/=d/)=G .d.^B | =d(^c/d/) (e/f/)(c/d/) | (=A/=d/)^G =GG | %194
 =A(=e/^d/ =d/c/=c/d/) | =g/.=G/.=d/.=D/[I:staff +1] (_B/[I:staff -1].G/) (^c/d/) | %196
 (e/f/^c/=d/) .=e/.^d/.=d/.=G/ | .^B/.c/.=G/.=A/ .c/.G/.=e/.G/ | x4 | (=a/b/=g/b/) (a/=f/^g/a/) | %200
 ^c'/=d'/g/=a/ b/a/=f/a/ | .^^f/.g/.^e/.g/ .=d/.=e/.b/.e/ | (=e/^d/=d/!mf!c/) ^B/c/(B/c/) | %203
 =A>c (^^c/d/)(d/f/) | (^^f/g/)=e (^^f/^d/)=d/e/ | (^B/c/^f/c/) (^e/f/)(d/f/) | %206
 (^^f/g/)=e ([=Ee]/[G^B]/)([Gg]/[ce]/) | (=A/^e/^c/A/ c/e/)(B/[d^^f]/) | %208
[K:treble] (^e/[=ac']/)(^d/[^^fb]/) (=E/[^G=c]/)(G/[c=e]/) | =A/^e/^c/A/ c/e/([Bb]/[d^^f]/) | %210
 (^e/[=ac']/)(^d/[^^fb]/) (=E/[^G=c]/)([Gg]/[c=e]/) | ([=A^c=a]/e/)([cc']/[fa]/) (=f/c'/)_e | %212
 =g=f _eg |[K:treble] ([=Ac]/=f/)(c/[f=a]/) =f/c'/d | (=g=f_eg) | (=f/=a/)d (=gf | _e) (=g=fe) | %217
 (=g=f_e) g | b/_e'/=a/^c'/ ^e/=a/f/a/ ||[M:3/8] c'!8va(! z2 | =d' z2 | .=d' z2 | .c' z2 | .b z2 | %224
 .=a z2 | .^b z2!8va)! | .g z2 | .=a z2 |[K:treble] .=d' z2 | .b z2 | .g z2 | .=a z2 | .=d' z2 | %233
 .^b z2 | .g z2 | x3 | x3 | x3 | x3 | x3 | x3 | x3 | x3 | x3 | x3 | x3 | x3 | x3 | x3 | x3 | x3 | %251
 x3 | x3 | x3 | x3 | x3 |[K:bass] x3 |[K:treble] x3 |[K:bass] x3 |[K:treble] x3 | %260
[K:bass] x[K:treble] x x |[K:treble] x[K:bass][K:treble] x x | x[K:bass][K:treble] x x | %263
 x[K:bass][K:treble] x x |[K:treble] x3 | x3 | x3 | x3 | x3 | x3 | [dfabd']3- | [dfabd']3 || %272
[M:4/4][K:bass] F,,,8- | F,,,8- | F,,,4-"_" F,,,2- F,,,3/2 z/ | [=E,,,B,,,=E,,]8- | %276
 [E,,,B,,,E,,]8 | [=D,,,=A,,,=D,,]8- | [=D,,,=A,,,=D,,]8 | [=C,,,=G,,,=C,,]8- | %280
 [C,,,G,,,C,,]4 !tenuto![=C,,,=G,,,=C,,]4 | [F,,,^C,,F,,]8- | %282
 [F,,,C,,F,,]4"_" !tenuto![F,,,C,,F,,]4 | [=E,,,B,,,=E,,]8- | [E,,,B,,,E,,]8- | [E,,,B,,,E,,]8- | %286
 [E,,,B,,,E,,]8 | !>!F,,,8-[K:treble] | (9:8:2x[K:bass] F,,,8-[K:treble] | %289
 (9:8:2x/4[K:bass] F,,,2-[K:treble] (9:8:3x/4[K:bass] F,,,3/2 z/[K:bass] x4 | x8 | [=C,,=G,,]8- | %292
 [C,,G,,]8 | ^F,,6"_" (^C,,2 | F,,6)"_" C,,2 |[K:treble] x8 | %296
 z2 z2 z2 (9:8:2x/8[K:bass]"_" C,, z | F,,,8- |[K:treble] (5:4:2x2[K:bass]"_" F,,,8[K:treble] | %299
 x8 | x8 |[K:bass] x8 |] %302
V:5
 x/ | x4 | x4 | x4 | x4 | x4 | x4 | x4 | x4 | x4 | x4 | x4 | x4 | x4 | .F,, z z2 | ^B,,=B,,A,,G,, | %16
 .[F,,^B,,] x x2 | .[F,,C,] x x2 | .[F,,^D,] x x2 | .[F,,=E,] x x2 | .[F,,^B,,] x x2 | %21
 .[F,,C,] x x2 | .[F,,^D,] x x2 | .[F,,=E,] x[K:treble] x2 |[K:bass] x4 | x4 | x4 | x4 | x4 | x4 | %30
 x4 | x2[K:treble] x2 | F z z2 | z4 | F,4- | F, z z2 | F z z2 | z4 | F,4 | F, x d x | x4 | x4 | %42
 x4 | x4 | x4 | x4 | x4 | x4 | _A3 =G | _B_A_d_c | _B,4 | _E x x x | _e3 d | =f_e_a_g | =F z z2 | %55
 _B x[K:bass] x2 | x4 | x4 | x4 | x4 | x4 | x4 | x4 | x4 | x4 | x2[K:treble] x2 | %66
[K:bass] x2[K:treble] x2 |[K:bass] x2[K:treble] x2 |[K:bass] x2[K:treble] x2 | %69
[K:bass] x2[K:treble] x2 | x4 |[K:treble] x4 | x4 | x4 | x4 | x4 | x4 | x4 | x4 | x4 | x4 | x4 | %82
 x4 ||[K:F#][M:4/4][K:bass] x8 | x6[K:treble] x7/4[K:bass] x/4 | x8 | x8 | x7[K:treble] x | x8 | %89
[K:bass] x8 |[K:treble] x8 |[K:bass][K:bass] x8 | x6[K:treble] x7/4[K:bass] x/4 | x8 | x8 | x8 | %96
 x8 |[K:bass] x4[I:staff -1] !>!=d4- | =d8 |[I:staff +1][K:bass] x8 | %100
 x6[K:treble] x7/4[K:bass] x/4 | x8 | x8 | x8 | x8 | x8 | x8 | x8 | x8 | x8 | x8 | x8 | %112
 x7 x7/8 x/8 || x8 | x8 | x8 | x7 x7/8 x/8 || x8 | x7 x7/8 x/8 || x8 | x7 x7/8 x/8 || x8 | x8 | %123
 x8 | x7 x7/8 x/8 || x8 | x7 x7/8 x/8 || x8 | x7 x7/8 x/8 || x8 | x8 | x8 | x7 x7/8 x/8 || x8 | %134
 x8 | x8 | x7 x7/8 x/8 ||[M:2/4] x4 | x4 | x4 | x4 | x4 | x4 | x4 | x4 | x4 | x4 | x4 | x4 | x4 | %150
 x4 | x4 | x4 | x4 | x4 | x4 | x4 | x4 | x4 | x4 | x4 | x4 | x4 | x4 | x4 | x4 | x4 | x4 | x4 || %169
[M:4/4] x/[K:treble] x8 |[K:bass] x4[K:treble] x2 x2 (x/4 x/4) | x8 | x8 | %173
[M:4/4][K:bass] x15/64[K:treble] x7 |[K:bass] x6[K:treble] x3/2 (x/4 x/4) | x8 | x8 |[K:bass] x8 | %178
 x8 |[M:4/4] x8 | x8 | x8 | x8 |[M:2/4][K:treble] x4 | x4 | x4 | x4 |[K:bass] x[K:treble] x3 | x4 | %189
 !>!=c3 .B | x4 | !>!B3 .=A | x4 | x4 | =D4 | x4 | x4 | =A, z z2 | =D z z2 | =d3 ^B | B z z2 | %201
 =E z z2 | x4 | F,2 ^B,2 | =E(=A/c/) x2 | x4 | x2[K:bass] x2 | x4 | x4 | x4 | x4 | %211
 x2[K:treble] x2 | x4 |[K:bass] x2[K:treble] x2 | x4 |[K:bass] [B,,,B,,]4-[K:treble] | %216
 (5:4:2x[K:bass]"^" [B,,,B,,]4-[K:treble] | (5:4:2x[K:bass] [B,,,B,,]4[K:treble] | %218
[K:bass] x2[K:treble] x2 ||[M:3/8][K:bass] x3 |[K:treble] x3 | x3 | x3 | x3 | x3 | x3 | x3 | x3 | %228
[K:treble] x3 | x3 | x3 | x3 | x3 | x3 | x3 |[K:bass] x3 | x3 | x3 | x3 | x3 | x3 | x3 | x3 | x3 | %244
 x3 | x3 | x3 | x3 | x3 | x3 | x3 | x3 | x3 |[K:treble] x3 |[K:bass] x3 |[K:treble] x3 | %256
[K:bass] x3 | x3 | x3 | x3 | x3 | x3 | x3 | x3 | x3 | x3 | x3 | x3 | x3 | x3 | x3 | x3 || %272
[M:4/4] x8 | x8 | x8 | x8 | x8 | x8 | x8 | x8 | x8 | x8 | x8 | x8 | x8 | x8 | x8 | x8 | x8 | x8 | %290
 x8 | x8 | x8 | x8 | x8 | x8 | x8 | x8 | x8 | x8 | x8 | x8 |] %302
V:6
 x/ | x4 | x4 | x4 | x4 | x4 | x4 | x4 | x4 | x4 | x4 | x4 | x4 | x4 | x4 | .F,, x3 | x4 | x4 | %18
 x4 | x4 | x4 | x4 | x4 | x2[K:treble] x2 |[K:bass] x4 | x4 | x4 | x4 | x4 | x4 | x4 | %31
 x2[K:treble] x2 | x4 | x4 | x4 | x4 | x4 | x4 | x4 | x4 | x4 | x4 | x4 | x4 | x4 | x4 | x4 | x4 | %48
 x4 | x4 | x4 | x4 | x4 | x4 | x4 | x2[K:bass] x2 | x4 | x4 | x4 | x4 | x4 | x4 | x4 | x4 | x4 | %65
 x2[K:treble] x2 |[K:bass] x2[K:treble] x2 |[K:bass] x2[K:treble] x2 |[K:bass] x2[K:treble] x2 | %69
[K:bass] x2[K:treble] x2 | x4 |[K:treble] x4 | x4 | x4 | x4 | x4 | x4 | x4 | x4 | x4 | x4 | x4 | %82
 x4 ||[K:F#][M:4/4][K:bass] x8 | x6[K:treble] x7/4[K:bass] x/4 | x8 | x8 | x7[K:treble] x | x8 | %89
[K:bass] x8 |[K:treble] x8 |[K:bass][K:bass] x8 | x6[K:treble] x7/4[K:bass] x/4 | x8 | x8 | x8 | %96
 x8 |[K:bass] x8 | x8 |[K:bass] x8 | x6[K:treble] x7/4[K:bass] x/4 | x8 | x8 | x8 | x8 | x8 | x8 | %107
 x8 | x8 | x8 | x8 | x8 | x8 || x8 | x8 | x8 | x8 || x8 | x8 || x8 | x8 || x8 | x8 | x8 | x8 || %125
 x8 | x8 || x8 | x8 || x8 | x8 | x8 | x8 || x8 | x8 | x8 | x8 ||[M:2/4] x4 | x4 | x4 | x4 | x4 | %142
 x4 | x4 | x4 | x4 | x4 | x4 | x4 | x4 | x4 | x4 | x4 | x4 | x4 | x4 | x4 | x4 | x4 | x4 | x4 | %161
 x4 | x4 | x4 | x4 | x4 | x4 | x4 | x4 ||[M:4/4] x/[K:treble] x8 |[K:bass] x/[K:treble] x8 | x8 | %172
 x8 |[M:4/4][K:bass] x15/64[K:treble] x7 |[K:bass] x15/64[K:treble] x7 | x8 | x8 |[K:bass] x8 | %178
 x8 |[M:4/4] x8 | x8 | x8 | x8 |[M:2/4][K:treble] x4 | x4 | x4 | x4 |[K:bass] x[K:treble] x3 | x4 | %189
 x4 | x4 | x4 | x4 | x4 | x4 | x4 | x4 | x4 | x4 | x4 | x4 | x4 | x4 | (C/^B,/C/=E/) x2 | x4 | x4 | %206
 x2[K:bass] x2 | x4 | x4 | x4 | x4 | x2[K:treble] x2 | x4 |[K:bass] x2[K:treble] x2 | x4 | %215
[K:bass] x[K:treble] x3 | x4/5[K:bass] x/5[K:treble] x3 | x4/5[K:bass] x/5[K:treble] x3 | %218
[K:bass] x2[K:treble] x2 ||[M:3/8][K:bass] x3 |[K:treble] x3 | x3 | x3 | x3 | x3 | x3 | x3 | x3 | %228
[K:treble] x3 | x3 | x3 | x3 | x3 | x3 | x3 |[K:bass] x3 | x3 | x3 | x3 | x3 | x3 | x3 | x3 | x3 | %244
 x3 | x3 | x3 | x3 | x3 | x3 | x3 | x3 | x3 |[K:treble] x3 |[K:bass] x3 |[K:treble] x3 | %256
[K:bass] x3 | x3 | x3 | x3 | x3 | x3 | x3 | x3 | x3 | x3 | x3 | x3 | x3 | x3 | x3 | x3 || %272
[M:4/4] x8 | x8 | x8 | x8 | x8 | x8 | x8 | x8 | x8 | x8 | x8 | x8 | x8 | x8 | x8 | x8 | x8 | x8 | %290
 x8 | x8 | x8 | x8 | x8 | x8 | x8 | x8 | x8 | x8 | x8 | x8 |] %302
V:7
 x/ | x4 | x4 | x4 | x4 | x4 | x4 | x4 | x4 | x4 | x4 | x4 | x4 | x4 | x4 | x4 | x4 | x4 | x4 | %19
 x4 | x4 | x4 | x4 | x4 | .A x3 | .[GB] x3 | .G x3 | .A x3 | .F x3 | .F x x2 | .B, x .[D,G,A,] x | %31
 .G, x3 | x4 | x4 | x4 | x4 | x4 | x4 | x4 | x4 | x4 | x4 | x4 | x4 | x4 | x4 | x4 | x4 | x4 | x4 | %50
 x4 | x4 | x4 | x4 | x4 | x4 | x4 | x4 | x4 | x4 | x4 | x4 | x4 | x4 | x4 | x4 | x4 | x4 | x4 | %69
 x4 | x4 | x4 | x4 | x4 | x4 | x4 | x4 | x4 | x4 | x/!8va(! x7/2 | x4 | x4 | x4!8va)! || %83
[K:F#][M:4/4] x8 | x8 | x8 | x8 | x8 | x8 | x8 | x8 | x8 | x8 | x8 | x8 | x8 | x8 | x8 | x8 | x8 | %100
 x8 | x8 | x8 | x8 | x8 |[K:bass][K:bass] x8 | x8 | x8 | x8 | x8 | x8 | x8 | x8 || x8 | x8 | x8 | %116
 x8 || x8 | x8 || x8 | x8 || x8 | x8 | x8 | x8 ||[K:treble] x8 | x8 || x8 | x8 || x8 | x8 | x8 | %132
 x8 || x8 | x8 | x8 |[K:bass] x8 ||[M:2/4] x4 | x4 | x4 | x4 | x4 | x4 | x4 | x4 | x4 | %146
 x2[K:treble] x2 | x4 | x4 |[K:bass] x4 | x4 | x4 | x4 | x4 | x4 | x4 |[K:treble] x4 | x4 | x4 | %159
 x4 | x4 | x4 | x4 | x4 | x4 | x4 | x4 | x4 | x4 ||[M:4/4] x17/2 | x17/2 | x8 | x8 |[M:4/4] x8 | %174
 x8 | x8 | x8 |[K:bass] x8 | x8 |[M:4/4] x8 | x8 | x7/2[K:treble] x4!8va(! x/ | x8!8va)! | %183
[M:2/4] x4 | x4 | x4 | x4 | x4 | x4 | x4 | x4 | x4 | x4 | x4 | x4 | x4 | x4 | x4 | x4 | x4 | x4 | %201
 x4 | x4 | x4 | x4 | x4 | x4 | x4 |[K:treble] x4 | x4 | x4 | x4 | x4 |[K:treble] x4 | x4 | x4 | %216
 x4 | x4 | x4 ||[M:3/8] x!8va(! x2 | x3 | x3 | x3 | x3 | x3 | x3!8va)! | x3 | x3 |[K:treble] x3 | %229
 x3 | x3 | x3 | x3 | x3 | x3 | x3 | x3 | x3 | x3 | x3 | x3 | x3 | x3 | x3 | x3 | x3 | x3 | x3 | %248
 x3 | x3 | x3 | x3 | x3 | x3 | x3 | x3 |[K:bass] x3 |[K:treble] x3 |[K:bass] x3 |[K:treble] x3 | %260
[K:bass] x[K:treble] x2 |[K:treble] x3/4[K:bass] x/4[K:treble] x2 | x3/4[K:bass] x/4[K:treble] x2 | %263
 x3/4[K:bass] x/4[K:treble] x2 |[K:treble] x3 | x3 | x3 | x3 | x3 | x3 | x3 | x3 || %272
[M:4/4][K:bass] x8 | x8 | z2 z2 x4 | x8 | x8 | x8 | x8 | x8 | x8 | x8 | x8 | x8 | x8 | x8 | x8 | %287
 x4[K:treble] x4 | x57/64[K:bass] x3[K:treble] x4 | %289
 x7/32[K:bass] x57/32[K:treble] x7/32[K:bass] x57/32[K:bass] x4 | x8 | x8 | x8 | x8 | x8 | %295
[K:treble] x8 | x6[K:bass] x121/64 | x8 |[K:treble] x8/5[K:bass] x2/5[K:treble] x6 | x8 | x8 | %301
[K:bass] x8 |] %302
V:8
 x/ | x4 | x4 | x4 | x4 | x4 | x4 | x4 | x4 | x4 | x4 | x4 | x4 | x4 | x4 | x4 | x4 | x4 | x4 | %19
 x4 | x4 | x4 | x4 | x4 | x4 | x4 | x4 | x4 | x4 | x4 | x4 | x4 | x4 | x4 | x4 | x4 | x4 | x4 | %38
 x4 | x4 | x4 | x4 | x4 | x4 | x4 | x4 | x4 | x4 | x4 | x4 | x4 | x4 | x4 | x4 | x4 | x4 | x4 | %57
 x4 | x4 | x4 | x4 | x4 | x4 | x4 | x4 | x4 | x4 | x4 | x4 | x4 | x4 | x4 | x4 | x4 | x4 | x4 | %76
 x4 | x4 | x4 | x4 | x4 | x4 | x4 ||[K:F#][M:4/4]!8va(! x8 | x4 x2!8va)! (!>!a!>!g | f) x x2 x4 | %86
 x8!8va(! | x8 | x2!8va)! x6 | x8 | x4!8va(! x4 | x8 | x4 x2!8va)! (ag | f) x x2 x4 | %94
 x13/2!8va(! x3/2 | x8 | x2!8va)! x6 | x13/2!8va(! x3/2!8va)! | x7/2!8va(! x9/2 | x8 | %100
 x4 x2!8va)! (!>!a!>!g | f) x x2 x4 | x8 | x8 | x8 |[K:bass][K:bass] x8 | x8 | x8 | x8 | %109
[K:treble] x8 | x2!<(! x4 x2!<)! | x8 | x7 x7/8 x/8 || x8 | x8 | x8 | x7 x7/8 x/8 || x8 | %118
 x7 x7/8 x/8 || x8 | x7 x7/8 x/8 || x8 | x8 | x8 | x7 x7/8 x/8 || x8 | x7 x7/8 x/8 || x8 | %128
 x7 x7/8 x/8 || x8 | x8 | x8 | x7 x7/8 x/8 || x8 | x8 | x8 | x7 x7/8 x/8 || %137
[M:2/4][K:bass] .E, z z2 | .F, z z2 | [=E,G,] z F, z | =E, z =D, z |[K:treble] [^A,=E] z z2 | %142
 [B,=D] z z2 | [=G,B,] z [G,B,] z | [=G,B,] z ^E, z | !>!=C.=D !>!B,.C | .=A,.B,.=C.D | %147
 =D z =A, z | =D z D z | =C z B, z | [=A,=E] z =D z | ^B, z =B, z | [=A,=E] z =D z | %153
 =C z [=D=G] z | =C z B, z | x4 | x4 | !>!=e.e !>!e.=d | !>!f.=e !>!=d.f | !>!=e.e !>!e.=d | %160
 !>!f.=e !>!=d.f | [=e=g] x x2 | x4 | x4 | x4 | x4 | x4 | x4 | x4 ||[M:4/4]!8va(! x5/2!8va)! x6 | %170
 x17/2 | x8 | x8 |[M:4/4] x4 x4 | x4 x2 !>!dc/ z/ | x4 x4 | x4 x4 | x4 x4 | x4 x4 |[M:4/4] x4 x4 | %180
 x4 x4 | x15/2!8va(! x/ | x8!8va)! |[M:2/4] x4 | x4 | x4 | x4 | x4 | x4 | x4 | x4 | x4 | x4 | x4 | %194
 x4 | x4 | x4 | x4 | x4 | x4 | x4 | x4 | x4 | x4 | x4 | x4 | x4 | x4 | x4 | x4 | x4 | x4 | x4 | %213
 x4 | x4 | x4 | x4 | x4 | x4 ||[M:3/8] x3 | x3 | x3 | x3 | x3 | x3 | x3 | x3 | x3 | x3 | x3 | x3 | %231
 x3 | x3 | x3 | x3 | x3 | x3 | x3 | x3 | x3 | x3 | x3 | x3 | x3 | x3 | x3 | x3 | x3 | x3 | x3 | %250
 x3 | x3 | x3 | x3 | x3 | x3 | x3 | x3 | x3 | x3 | x3 | x3 | x5/2!8va(! x/ | x3 | x3 | x3 | x3 | %267
 x3 | x3 | x3 | !fermata![a'b'f''a'']3- | !fermata![a'b'f''a'']3!8va)! ||[M:4/4] x8 | x8 | %274
 z2!ppp! z2 x2 x2 | [G,B,=EG]8- | [G,B,EG]8 | [F,=A,=DF]8- | [F,=A,=DF]8 | !tenuto![=E,=G,=C=E]8- | %280
 [E,G,CE]4!ppp! !tenuto![=E,=G,=C=E]4 | !tenuto![A,^CFA]8- | [A,CFA]4!ppp! !tenuto![^A,CF^A]4 | %283
 [B,=D=GB]8- | [B,DGB]8- | [B,DGB]8- | [B,DGB]8 | x8 | x8 | x8 | x8 | x8 | x8 | x8 | x8 | x8 | x8 | %297
 x8 |!8va(! x3!8va)! x5 | x8 | x8 | x8 |] %302
V:9
 x/ | x4 | x4 | x4 | x4 | x4 | x4 | x4 | x4 | x4 | x4 | x4 | x4 | x4 | x4 | x4 | x4 | x4 | x4 | %19
 x4 | x4 | x4 | x4 | x4 | x4 | x4 | x4 | x4 | x4 | x4 | x4 | x4 | x4 | x4 | x4 | x4 | x4 | x4 | %38
 x4 | x4 | x4 | x4 | x4 | x4 | x4 | x4 | x4 | x4 | x4 | x4 | x4 | x4 | x4 | x4 | x4 | x4 | x4 | %57
 x4 | x4 | x4 | x4 | x4 | x4 | x4 | x4 | x4 | x4 | x4 | x4 | x4 | x4 | x4 | x4 | x4 | x4 | x4 | %76
 x4 | x4 | x4 | x4 | x4 | x4 | x4 ||[K:F#][M:4/4]!8va(! x8 | x6!8va)! x2 | x8 | x13/2!8va(! x3/2 | %87
 x8 | x2!8va)! x6 | x8 | x4!8va(! x4 | x8 | x6!8va)! x2 | x8 | x13/2!8va(! x3/2 | x8 | %96
 x2!8va)! x6 | x13/2!8va(! x3/2!8va)! | x7/2!8va(! x9/2 | x8 | x6!8va)! x2 | x8 | x8 | x8 | x8 | %105
[K:bass][K:bass] x8 | x8 | x8 | x8 |[K:treble] x8 | x8 | x8 | x8 || x8 | x8 | x8 | x8 || x8 | x8 || %119
 x8 | x8 || x8 | x8 | x8 | x8 || x8 | x8 || x8 | x8 || x8 | x8 | x8 | x8 || x8 | x8 | x8 | x8 || %137
[M:2/4][K:bass] x4 | x4 | x4 | x4 |[K:treble] x4 | x4 | x4 | x4 | x4 | x4 | x4 | x4 | x4 | x4 | %151
 x4 | x4 | x4 | x4 | x4 | x4 | x4 | x4 | x4 | x4 | x4 | x4 | x4 | x4 | x4 | x4 | x4 | x4 || %169
[M:4/4]!8va(! x5/2!8va)! x6 | x17/2 | x8 | x8 |[M:4/4] x8 | x8 | x8 | x8 | x8 | x8 |[M:4/4] x8 | %180
 x8 | x15/2!8va(! x/ | x8!8va)! |[M:2/4] x4 | x4 | x4 | x4 | x4 | x4 | x4 | x4 | x4 | x4 | x4 | %194
 x4 | x4 | x4 | x4 | x4 | x4 | x4 | x4 | x4 | x4 | x4 | x4 | x4 | x4 | x4 | x4 | x4 | x4 | x4 | %213
 x4 | x4 | x4 | x4 | x4 | x4 ||[M:3/8] x3 | x3 | x3 | x3 | x3 | x3 | x3 | x3 | x3 | x3 | x3 | x3 | %231
 x3 | x3 | x3 | x3 | x3 | x3 | x3 | x3 | x3 | x3 | x3 | x3 | x3 | x3 | x3 | x3 | x3 | x3 | x3 | %250
 x3 | x3 | x3 | x3 | x3 | x3 | x3 | x3 | x3 | x3 | x3 | x3 | x5/2!8va(! x/ | x3 | x3 | x3 | x3 | %267
 x3 | x3 | x3 | x3 | x3!8va)! ||[M:4/4] x8 | x8 | %274
{d'=e'd'} x3/2 x/ x2 !tenuto![A,CFA]2 !tenuto![Acfa]2 | x8 | %276
{c'd'c'} x3/2 x/ x2!ppp! !tenuto![G,B,=EG]2 !tenuto![GB=eg]2 | x8 | %278
{bc'b} x3/2 x/ x2!ppp! !tenuto![F,=A,=DF]2 !tenuto![F=A=df]2 | x8 |{=d'=e'=d'} x3/2 x/ x2 x4 | x8 | %282
({=g=ag)} x3/2 x/ x2 x4 | x8 | x8 | x8 | x8 | x8 | x8 | x8 | x8 | x8 | x8 | x8 | x8 | x8 | x8 | %297
 x8 |!8va(! x3!8va)! x5 | x8 | x8 | x8 |] %302
V:10
 x/ | x4 | x4 | x4 | x4 | x4 | x4 | x4 | x4 | x4 | x4 | x4 | x4 | x4 | x4 | x4 | x4 | x4 | x4 | %19
 x4 | x4 | x4 | x4 | x4 | x4 | x4 | x4 | x4 | x4 | x4 | x4 | x4 | x4 | x4 | x4 | x4 | x4 | x4 | %38
 x4 | x4 | x4 | x4 | x4 | x4 | x4 | x4 | x4 | x4 | x4 | x4 | x4 | x4 | x4 | x4 | x4 | x4 | x4 | %57
 x4 | x4 | x4 | x4 | x4 | x4 | x4 | x4 | x4 | x4 | x4 | x4 | x4 | x4 | x4 | x4 | x4 | x4 | x4 | %76
 x4 | x4 | x4 | x/!8va(! x7/2 | x4 | x4 | x4!8va)! ||[K:F#][M:4/4] x8 | x8 | x8 | x8 | x8 | x8 | %89
 x8 | x8 | x8 | x8 | x8 | x8 | x8 | x8 | x8 | x8 | x8 | x8 | x8 | x8 | x8 | x8 | %105
[K:bass][K:bass] x8 | x8 | x8 | x8 | x8 | x8 | x8 | x8 || x8 | x8 | x8 | x8 || x8 | x8 || x8 | %120
 x8 || x8 | x8 | x8 | x8 ||[K:treble] x8 | x8 || x8 | x8 || x8 | x8 | x8 | x8 || x8 | x8 | x8 | %136
[K:bass] x8 ||[M:2/4] x4 | x4 | x4 | x4 | x4 | x4 | x4 | x4 | x4 | x2[K:treble] x2 | x4 | x4 | %149
[K:bass] x4 | x4 | x4 | x4 | x4 | x4 | x4 |[K:treble] x4 | x4 | x4 | x4 | x4 | x4 | x4 | x4 | x4 | %165
 x4 | x4 | x4 | x4 ||[M:4/4] x17/2 | x17/2 | x8 | x8 |[M:4/4] x8 | x8 | x8 | x8 |[K:bass] x8 | x8 | %179
[M:4/4] x8 | x8 | x7/2[K:treble] x4!8va(! x/ | x8!8va)! |[M:2/4] x4 | x4 | x4 | x4 | x4 | x4 | x4 | %190
 x4 | x4 | x4 | x4 | x4 | x4 | x4 | x4 | x4 | x4 | x4 | x4 | x4 | x4 | x4 | x4 | x4 | x4 | %208
[K:treble] x4 | x4 | x4 | x4 | x4 |[K:treble] x4 | x4 | x4 | x4 | x4 | x4 ||[M:3/8] x!8va(! x2 | %220
 x3 | x3 | x3 | x3 | x3 | x3!8va)! | x3 | x3 |[K:treble] x3 | x3 | x3 | x3 | x3 | x3 | x3 | x3 | %236
 x3 | x3 | x3 | x3 | x3 | x3 | x3 | x3 | x3 | x3 | x3 | x3 | x3 | x3 | x3 | x3 | x3 | x3 | x3 | %255
 x3 |[K:bass] x3 |[K:treble] x3 |[K:bass] x3 |[K:treble] x3 |[K:bass] x[K:treble] x2 | %261
[K:treble] x3/4[K:bass] x/4[K:treble] x2 | x3/4[K:bass] x/4[K:treble] x2 | %263
 x3/4[K:bass] x/4[K:treble] x2 |[K:treble] x3 | x3 | x3 | x3 | x3 | x3 | x3 | x3 || %272
[M:4/4][K:bass] x8 | x8 |{D=ED} x3/2 x/ x2 !tenuto![F,,C,F,]2 !tenuto![F,CF]2 | x8 | %276
{CDC} x3/2 x/ x2"_" !tenuto![=E,,B,,=E,]2 !tenuto![E,B,=E]2 | x8 | %278
{B,CB,} x3/2 x/ x2 !tenuto![=D,,=A,,=D,]2 !tenuto![D,=A,=D]2 | x8 |{=D=ED} x3/2 x/ x2 x4 | x8 | %282
{=G,=A,G,} x3/2 x/ x2 x4 | x8 | x8 | x8 | x8 | x4[K:treble] x4 | x57/64[K:bass] x3[K:treble] x4 | %289
 x7/32[K:bass] x57/32[K:treble] x7/32[K:bass] x57/32[K:bass] x4 | x8 | x8 | x8 | x8 | x8 | %295
[K:treble] x8 | x6[K:bass] x121/64 | x8 |[K:treble] x8/5[K:bass] x2/5[K:treble] x6 | x8 | x8 | %301
[K:bass] x8 |] %302

